;FLAVOR:Marlin
;TIME:3803
;Filament used: 2.31173m
;Layer height: 0.15
;MINX:68.418
;MINY:68.379
;MINZ:0.15
;MAXX:144.677
;MAXY:141.687
;MAXZ:4.95
;Generated with Cura_SteamEngine 4.7.1
M82 ;absolute extrusion mode
G21 ; set units to millimeters
G90 ; use absolute positioning
M82 ; absolute extrusion mode
M104 S230 ; set extruder temp
M140 S80 ; set bed temp
M190 S80 ; wait for bed temp
M109 S230 ; wait for extruder temp
G28 W ; home all without mesh bed level
G80 ; mesh bed leveling
G92 E0.0 ; reset extruder distance position
G1 Y-3.0 F1000.0 ; go outside print area
G1 X60.0 E9.0 F1000.0 ; intro line
G1 X100.0 E21.5 F1000.0 ; intro line
G92 E0.0 ; reset extruder distance position
G92 E0
G92 E0
G1 F2100 E-0.8
;LAYER_COUNT:34
;LAYER:0
M107
G0 F1800 X69.828 Y93.347 Z0.15
;TYPE:SKIRT
G1 F2100 E0
G1 F1800 X70.282 Y93.011 E0.0155
G1 X70.876 Y92.7 E0.0339
G1 X73.971 Y91.555 E0.12445
G1 X76.495 Y90.539 E0.19911
G1 X78.981 Y89.456 E0.27351
G1 X81.449 Y88.296 E0.34834
G1 X83.871 Y87.074 E0.42278
G1 X86.255 Y85.784 E0.49716
G1 X88.604 Y84.426 E0.57161
G1 X90.91 Y83.003 E0.64596
G1 X93.187 Y81.511 E0.72066
G1 X95.42 Y79.952 E0.79539
G1 X97.587 Y78.349 E0.86935
G1 X99.728 Y76.668 E0.94404
G1 X101.807 Y74.939 E1.01824
G1 X103.849 Y73.139 E1.09293
G1 X105.854 Y71.27 E1.16815
G1 X107.461 Y69.686 E1.23006
G1 X107.666 Y69.491 E1.23783
G1 X108.102 Y69.131 E1.25334
G1 X108.585 Y68.836 E1.26887
G1 X109.104 Y68.613 E1.28437
G1 X109.65 Y68.464 E1.2999
G1 X110.3 Y68.391 E1.31785
G1 X110.748 Y68.379 E1.33015
G1 X140.027 Y68.379 E2.13355
G1 X140.725 Y68.389 E2.15271
G1 X141.289 Y68.437 E2.16824
G1 X141.839 Y68.564 E2.18373
G1 X142.367 Y68.768 E2.19926
G1 X142.861 Y69.043 E2.21477
G1 X143.31 Y69.386 E2.23028
G1 X143.707 Y69.788 E2.24578
G1 X144.044 Y70.243 E2.26132
G1 X144.312 Y70.74 E2.27681
G1 X144.508 Y71.27 E2.29232
G1 X144.628 Y71.823 E2.30784
G1 X144.675 Y72.597 E2.32912
G1 X144.677 Y72.709 E2.33219
G1 X144.677 Y77.316 E2.45861
G1 X144.667 Y78.013 E2.47774
G1 X144.657 Y78.239 E2.48394
G1 X144.603 Y79.001 E2.5049
G1 X144.486 Y80.379 E2.54285
G1 X144.331 Y83.117 E2.6181
G1 X144.254 Y85.792 E2.69153
G1 X144.254 Y88.536 E2.76683
G1 X144.329 Y91.206 E2.84012
G1 X144.485 Y93.963 E2.91589
G1 X144.6 Y95.434 E2.95638
G1 X144.652 Y96.034 E2.9729
G1 X144.675 Y96.586 E2.98806
G1 X144.677 Y96.708 E2.99141
G1 X144.677 Y101.296 E3.11731
G1 X144.667 Y102.013 E3.13698
G1 X144.657 Y102.24 E3.14322
G1 X144.603 Y103.001 E3.16415
G1 X144.486 Y104.379 E3.2021
G1 X144.331 Y107.117 E3.27735
G1 X144.254 Y109.792 E3.35078
G1 X144.254 Y112.536 E3.42607
G1 X144.329 Y115.206 E3.49937
G1 X144.485 Y117.963 E3.57514
G1 X144.6 Y119.434 E3.61563
G1 X144.652 Y120.034 E3.63215
G1 X144.675 Y120.586 E3.64731
G1 X144.677 Y120.708 E3.65066
G1 X144.677 Y125.316 E3.7771
G1 X144.667 Y126.017 E3.79634
G1 X144.619 Y126.58 E3.81184
G1 X144.498 Y127.14 E3.82756
G1 X143.89 Y129.479 E3.89388
G1 X143.271 Y132.173 E3.96973
G1 X142.748 Y134.79 E4.04295
G1 X142.29 Y137.471 E4.11759
G1 X142.171 Y138.235 E4.1388
G1 X142.08 Y138.696 E4.1517
G1 X141.898 Y139.231 E4.1672
G1 X141.642 Y139.735 E4.18271
G1 X141.317 Y140.198 E4.19824
G1 X140.931 Y140.611 E4.21375
G1 X140.49 Y140.965 E4.22927
G1 X140.004 Y141.253 E4.24477
G1 X139.482 Y141.47 E4.26028
G1 X138.934 Y141.611 E4.2758
G1 X138.312 Y141.676 E4.29297
G1 X137.811 Y141.687 E4.30672
G1 X112.434 Y141.687 E5.00305
G1 X111.731 Y141.677 E5.02234
G1 X111.168 Y141.629 E5.03785
G1 X110.617 Y141.502 E5.05336
G1 X110.089 Y141.298 E5.06889
G1 X109.596 Y141.023 E5.08438
G1 X108.982 Y140.528 E5.10603
G1 X108.139 Y139.698 E5.13849
G1 X106.13 Y137.775 E5.2148
G1 X104.129 Y135.966 E5.28882
G1 X102.049 Y134.189 E5.36388
G1 X99.938 Y132.486 E5.43831
G1 X97.796 Y130.857 E5.51215
G1 X95.56 Y129.254 E5.58764
G1 X93.346 Y127.759 E5.66095
G1 X91.033 Y126.292 E5.7361
G1 X88.673 Y124.886 E5.81148
G1 X86.348 Y123.59 E5.88452
G1 X83.925 Y122.325 E5.95952
G1 X81.487 Y121.141 E6.03389
G1 X79.006 Y120.021 E6.10858
G1 X76.538 Y118.987 E6.18201
G1 X73.962 Y117.996 E6.25774
G1 X73.413 Y117.801 E6.27373
G1 X72.414 Y117.432 E6.30295
G1 X71.899 Y117.199 E6.31846
G1 X71.422 Y116.896 E6.33397
G1 X70.992 Y116.529 E6.34948
G1 X70.618 Y116.104 E6.36502
G1 X70.308 Y115.632 E6.38051
G1 X70.068 Y115.12 E6.39603
G1 X69.902 Y114.58 E6.41153
G1 X69.81 Y113.969 E6.42848
G1 X69.607 Y111.162 E6.50571
G1 X69.337 Y108.477 E6.57975
G1 X68.987 Y105.774 E6.65454
G1 X68.56 Y103.07 E6.72966
G1 X68.484 Y102.627 E6.74199
G1 X68.429 Y102.067 E6.75743
G1 X68.418 Y101.636 E6.76926
G1 X68.418 Y97.019 E6.89595
G1 X68.428 Y96.329 E6.91489
G1 X68.477 Y95.766 E6.93039
G1 X68.604 Y95.215 E6.94591
G1 X68.807 Y94.687 E6.96143
G1 X69.083 Y94.194 E6.97693
G1 X69.425 Y93.744 E6.99244
G1 X69.828 Y93.347 E7.00797
G0 X70.216 Y93.547
G1 X70.663 Y93.25 E7.02269
G1 X71.248 Y92.985 E7.04031
G1 X71.513 Y92.891 E7.04803
G1 X74.11 Y91.93 E7.12401
G1 X76.668 Y90.901 E7.19967
G1 X79.132 Y89.827 E7.27342
G1 X81.62 Y88.657 E7.34887
G1 X84.05 Y87.431 E7.42355
G1 X86.452 Y86.133 E7.49847
G1 X88.809 Y84.769 E7.57319
G1 X91.118 Y83.345 E7.64763
G1 X93.429 Y81.83 E7.72345
G1 X95.641 Y80.286 E7.79748
G1 X97.848 Y78.653 E7.87281
G1 X99.964 Y76.992 E7.94662
G1 X102.082 Y75.23 E8.02222
G1 X104.123 Y73.431 E8.09688
G1 X106.118 Y71.572 E8.1717
G1 X107.737 Y69.976 E8.23408
G1 X107.942 Y69.781 E8.24185
G1 X108.357 Y69.441 E8.25657
G1 X108.818 Y69.167 E8.27128
G1 X109.314 Y68.964 E8.28599
G1 X109.835 Y68.837 E8.3007
G1 X110.637 Y68.781 E8.32276
G1 X110.748 Y68.779 E8.32581
G1 X140.022 Y68.779 E9.12908
G1 X140.72 Y68.789 E9.14823
G1 X141.254 Y68.837 E9.16294
G1 X141.775 Y68.963 E9.17765
G1 X142.272 Y69.166 E9.19238
G1 X142.733 Y69.44 E9.2071
G1 X143.148 Y69.779 E9.2218
G1 X143.508 Y70.177 E9.23653
G1 X143.805 Y70.623 E9.25123
G1 X144.033 Y71.109 E9.26596
G1 X144.185 Y71.623 E9.28067
G1 X144.267 Y72.288 E9.29905
G1 X144.277 Y72.709 E9.31061
G1 X144.277 Y77.311 E9.43689
G1 X144.267 Y78.008 E9.45601
G1 X144.258 Y78.21 E9.46156
G1 X144.204 Y78.967 E9.48239
G1 X144.086 Y80.356 E9.52064
G1 X143.933 Y83.049 E9.59465
G1 X143.854 Y85.815 E9.67058
G1 X143.854 Y88.511 E9.74456
G1 X143.931 Y91.274 E9.8204
G1 X144.084 Y93.971 E9.89453
G1 X144.202 Y95.468 E9.93573
G1 X144.254 Y96.068 E9.95226
G1 X144.275 Y96.599 E9.96684
G1 X144.277 Y96.708 E9.96983
G1 X144.277 Y101.29 E10.09556
G1 X144.267 Y102.007 E10.11523
G1 X144.258 Y102.212 E10.12087
G1 X144.204 Y102.967 E10.14163
G1 X144.086 Y104.356 E10.17989
G1 X143.933 Y107.049 E10.2539
G1 X143.854 Y109.815 E10.32983
G1 X143.854 Y112.511 E10.40381
G1 X143.931 Y115.274 E10.47965
G1 X144.084 Y117.971 E10.55377
G1 X144.202 Y119.468 E10.59498
G1 X144.254 Y120.068 E10.6115
G1 X144.275 Y120.599 E10.62609
G1 X144.277 Y120.708 E10.62908
G1 X144.277 Y125.31 E10.75535
G1 X144.267 Y126.011 E10.77459
G1 X144.174 Y126.771 E10.7956
G1 X144.111 Y127.039 E10.80316
G1 X143.5 Y129.386 E10.8697
G1 X142.881 Y132.084 E10.94566
G1 X142.356 Y134.709 E11.01911
G1 X141.896 Y137.404 E11.09413
G1 X141.776 Y138.173 E11.11549
G1 X141.686 Y138.621 E11.12803
G1 X141.507 Y139.126 E11.14273
G1 X141.255 Y139.6 E11.15746
G1 X140.936 Y140.031 E11.17217
G1 X140.556 Y140.409 E11.18688
G1 X140.124 Y140.727 E11.2016
G1 X139.65 Y140.977 E11.2163
G1 X139.144 Y141.154 E11.23101
G1 X138.617 Y141.254 E11.24573
G1 X137.901 Y141.286 E11.2654
G1 X112.44 Y141.287 E11.96404
G1 X111.737 Y141.277 E11.98333
G1 X111.203 Y141.229 E11.99804
G1 X110.681 Y141.103 E12.01278
G1 X110.185 Y140.9 E12.02748
G1 X109.724 Y140.626 E12.0422
G1 X109.263 Y140.243 E12.05864
G1 X108.416 Y139.409 E12.09126
G1 X106.411 Y137.491 E12.1674
G1 X104.392 Y135.664 E12.24211
G1 X102.315 Y133.89 E12.31706
G1 X100.169 Y132.159 E12.39272
G1 X98.02 Y130.525 E12.4668
G1 X95.819 Y128.946 E12.54112
G1 X93.554 Y127.417 E12.61611
G1 X91.231 Y125.943 E12.6916
G1 X88.908 Y124.56 E12.76579
G1 X86.506 Y123.221 E12.84124
G1 X84.106 Y121.968 E12.91553
G1 X81.648 Y120.774 E12.99052
G1 X79.177 Y119.658 E13.06492
G1 X76.669 Y118.609 E13.13951
G1 X74.102 Y117.62 E13.215
G1 X73.552 Y117.426 E13.231
G1 X72.553 Y117.057 E13.26022
G1 X72.065 Y116.834 E13.27494
G1 X71.615 Y116.541 E13.28968
G1 X71.215 Y116.185 E13.30437
G1 X70.871 Y115.773 E13.3191
G1 X70.593 Y115.315 E13.3338
G1 X70.385 Y114.82 E13.34853
G1 X70.254 Y114.301 E13.36322
G1 X70.209 Y113.94 E13.3732
G1 X70.006 Y111.129 E13.45054
G1 X69.733 Y108.418 E13.5253
G1 X69.386 Y105.737 E13.59948
G1 X68.962 Y103.052 E13.67407
G1 X68.878 Y102.56 E13.68777
G1 X68.828 Y102.056 E13.70166
G1 X68.818 Y101.636 E13.71319
G1 X68.818 Y97.025 E13.83971
G1 X68.828 Y96.335 E13.85865
G1 X68.876 Y95.801 E13.87336
G1 X69.003 Y95.28 E13.88808
G1 X69.205 Y94.783 E13.9028
G1 X69.479 Y94.322 E13.91751
G1 X69.819 Y93.907 E13.93223
G1 X70.216 Y93.547 E13.94694
G0 X70.211 Y94.08
G1 X70.602 Y93.759 E13.96082
G1 X71.186 Y93.438 E13.97911
G1 X74.25 Y92.305 E14.06875
G1 X76.811 Y91.274 E14.1445
G1 X79.326 Y90.178 E14.21978
G1 X81.792 Y89.019 E14.29454
G1 X84.227 Y87.79 E14.36939
G1 X86.651 Y86.479 E14.44501
G1 X88.998 Y85.122 E14.5194
G1 X91.368 Y83.66 E14.59581
G1 X93.632 Y82.176 E14.67009
G1 X95.886 Y80.603 E14.74551
G1 X98.066 Y78.99 E14.81992
G1 X100.243 Y77.281 E14.89586
G1 X102.319 Y75.554 E14.96996
G1 X104.395 Y73.724 E15.0459
G1 X106.407 Y71.848 E15.12138
G1 X108.013 Y70.265 E15.18326
G1 X108.218 Y70.07 E15.19102
G1 X108.61 Y69.752 E15.20487
G1 X109.048 Y69.499 E15.21875
G1 X109.52 Y69.319 E15.23262
G1 X110.015 Y69.215 E15.24649
G1 X110.65 Y69.181 E15.26394
G1 X110.748 Y69.179 E15.26663
G1 X140.016 Y69.179 E16.06974
G1 X140.714 Y69.189 E16.08889
G1 X141.217 Y69.236 E16.10275
G1 X141.707 Y69.362 E16.11664
G1 X142.171 Y69.564 E16.13052
G1 X142.597 Y69.836 E16.14439
G1 X142.975 Y70.171 E16.15825
G1 X143.295 Y70.562 E16.17211
G1 X143.55 Y70.999 E16.186
G1 X143.733 Y71.47 E16.19986
G1 X143.84 Y71.964 E16.21373
G1 X143.876 Y72.619 E16.23173
G1 X143.877 Y77.305 E16.36031
G1 X143.867 Y78.002 E16.37944
G1 X143.859 Y78.182 E16.38439
G1 X143.805 Y78.933 E16.40505
G1 X143.689 Y80.3 E16.44269
G1 X143.533 Y83.049 E16.51824
G1 X143.454 Y85.804 E16.59387
G1 X143.454 Y88.523 E16.66848
G1 X143.53 Y91.26 E16.74361
G1 X143.687 Y94.023 E16.81955
G1 X143.803 Y95.503 E16.86028
G1 X143.855 Y96.103 E16.87681
G1 X143.876 Y96.611 E16.89076
G1 X143.877 Y101.285 E17.01901
G1 X143.867 Y102.002 E17.03869
G1 X143.859 Y102.183 E17.04366
G1 X143.805 Y102.933 E17.06429
G1 X143.689 Y104.3 E17.10194
G1 X143.533 Y107.049 E17.17749
G1 X143.454 Y109.804 E17.25312
G1 X143.454 Y112.523 E17.32773
G1 X143.53 Y115.25 E17.40258
G1 X143.687 Y118.023 E17.4788
G1 X143.803 Y119.503 E17.51953
G1 X143.855 Y120.103 E17.53606
G1 X143.876 Y120.611 E17.55001
G1 X143.877 Y125.305 E17.67881
G1 X143.867 Y126.006 E17.69805
G1 X143.785 Y126.681 E17.7167
G1 X143.724 Y126.939 E17.72398
G1 X143.109 Y129.301 E17.79095
G1 X142.493 Y131.989 E17.86662
G1 X141.956 Y134.67 E17.94165
G1 X141.509 Y137.292 E18.01463
G1 X141.381 Y138.111 E18.03738
G1 X141.292 Y138.544 E18.04951
G1 X141.117 Y139.018 E18.06337
G1 X140.87 Y139.459 E18.07724
G1 X140.556 Y139.855 E18.09111
G1 X140.184 Y140.197 E18.10498
G1 X139.762 Y140.476 E18.11886
G1 X139.302 Y140.686 E18.13273
G1 X138.815 Y140.82 E18.14659
G1 X138.292 Y140.876 E18.16103
G1 X137.811 Y140.887 E18.17423
G1 X112.445 Y140.887 E18.87026
G1 X111.742 Y140.877 E18.88955
G1 X111.239 Y140.83 E18.90341
G1 X110.749 Y140.704 E18.9173
G1 X110.286 Y140.502 E18.93116
G1 X109.859 Y140.231 E18.94504
G1 X109.543 Y139.958 E18.95649
G1 X108.66 Y139.089 E18.99049
G1 X106.691 Y137.204 E19.06528
G1 X104.637 Y135.346 E19.14128
G1 X102.58 Y133.59 E19.2155
G1 X100.438 Y131.861 E19.29103
G1 X98.249 Y130.197 E19.36648
G1 X96.03 Y128.605 E19.44142
G1 X93.771 Y127.081 E19.51619
G1 X91.444 Y125.605 E19.5918
G1 X89.128 Y124.225 E19.66578
G1 X86.707 Y122.875 E19.74184
G1 X84.26 Y121.598 E19.81758
G1 X81.822 Y120.413 E19.89196
G1 X79.347 Y119.296 E19.96647
G1 X76.813 Y118.236 E20.04184
G1 X74.243 Y117.246 E20.11741
G1 X73.69 Y117.051 E20.1335
G1 X72.691 Y116.682 E20.16272
G1 X72.232 Y116.47 E20.1766
G1 X71.813 Y116.188 E20.19046
G1 X71.442 Y115.844 E20.20434
G1 X71.131 Y115.445 E20.21822
G1 X70.886 Y115.003 E20.23209
G1 X70.714 Y114.527 E20.24598
G1 X70.608 Y113.911 E20.26313
G1 X70.404 Y111.097 E20.34054
G1 X70.133 Y108.397 E20.415
G1 X69.778 Y105.655 E20.49087
G1 X69.35 Y102.945 E20.56615
G1 X69.228 Y102.045 E20.59108
G1 X69.218 Y101.636 E20.6023
G1 X69.218 Y97.031 E20.72866
G1 X69.228 Y96.341 E20.7476
G1 X69.276 Y95.837 E20.76149
G1 X69.401 Y95.348 E20.77534
G1 X69.603 Y94.884 E20.78922
G1 X69.875 Y94.458 E20.80309
G1 X70.211 Y94.08 E20.81697
G0 X72.618 Y96.579
;TYPE:SUPPORT
G1 X102.477 Y96.579 E21.63629
G1 X102.477 Y101.766 E21.77862
G1 X72.618 Y101.766 E22.59794
G1 X72.618 Y96.579 E22.74027
G0 X73.018 Y96.979
G1 X102.077 Y96.979 E23.53764
G1 X102.077 Y101.366 E23.65801
G1 X73.018 Y101.366 E24.45538
G1 X73.018 Y96.979 E24.57576
G0 X73.418 Y97.379
G1 X101.677 Y97.379 E25.35117
G1 X101.677 Y100.966 E25.4496
G1 X73.418 Y100.966 E26.22502
G1 X73.418 Y97.379 E26.32344
G0 X74.676 Y97.539
G1 X74.676 Y100.806 E26.41309
G0 X73.578 Y98.679
G1 X101.517 Y98.679 E27.17972
G0 X101.346 Y97.539
G1 X101.346 Y100.806 E27.26937
G0 X98.679 Y100.806
G1 X98.679 Y97.539 E27.35901
G0 X96.012 Y97.539
G1 X96.012 Y100.806 E27.44866
G0 X93.345 Y100.806
G1 X93.345 Y97.539 E27.5383
G0 X90.678 Y97.539
G1 X90.678 Y100.806 E27.62795
G0 X88.011 Y100.806
G1 X88.011 Y97.539 E27.71759
G0 X85.344 Y97.539
G1 X85.344 Y100.806 E27.80724
G0 X82.677 Y100.806
G1 X82.677 Y97.539 E27.89688
G0 X80.01 Y97.539
G1 X80.01 Y100.806 E27.98653
G0 X77.343 Y100.806
G1 X77.343 Y97.539 E28.07617
G0 X110.618 Y96.579
G1 X140.477 Y96.579 E28.89549
G1 X140.477 Y101.766 E29.03782
G1 X140.373 Y101.766 E29.04068
G1 X140.373 Y101.262 E29.05451
G1 X110.618 Y101.262 E29.87097
G1 X110.618 Y96.579 E29.99947
G0 X111.018 Y96.979
G1 X140.077 Y96.979 E30.79684
G1 X140.077 Y100.862 E30.90339
G1 X111.018 Y100.862 E31.70076
G1 X111.018 Y96.979 E31.8073
G0 X111.418 Y97.379
G1 X139.677 Y97.379 E32.58272
G1 X139.677 Y100.462 E32.66732
G1 X111.418 Y100.462 E33.44273
G1 X111.418 Y97.379 E33.52733
G0 X112.014 Y97.539
G1 X112.014 Y100.302 E33.60314
G0 X111.578 Y98.679
G1 X139.517 Y98.679 E34.36978
G0 X138.684 Y97.539
G1 X138.684 Y100.302 E34.44559
G0 X136.017 Y100.302
G1 X136.017 Y97.539 E34.52141
G0 X133.35 Y97.539
G1 X133.35 Y100.302 E34.59723
G0 X130.683 Y100.302
G1 X130.683 Y97.539 E34.67304
G0 X128.016 Y97.539
G1 X128.016 Y100.302 E34.74886
G0 X125.349 Y100.302
G1 X125.349 Y97.539 E34.82467
G0 X122.682 Y97.539
G1 X122.682 Y100.302 E34.90049
G0 X120.015 Y100.302
G1 X120.015 Y97.539 E34.9763
G0 X117.348 Y97.539
G1 X117.348 Y100.302 E35.05212
G0 X114.681 Y100.302
G1 X114.681 Y97.539 E35.12794
G1 F2100 E34.32794
G0 F1800 X111.093 Y90.515
G0 X110.618 Y77.766
G1 F2100 E35.12794
G1 F1800 X110.618 Y72.579 E35.27026
G1 X140.477 Y72.579 E36.08958
G1 X140.477 Y77.766 E36.23191
G1 X110.618 Y77.766 E37.05123
G0 X111.018 Y77.366
G1 X111.018 Y72.979 E37.17161
G1 X140.077 Y72.979 E37.96898
G1 X140.077 Y77.366 E38.08936
G1 X111.018 Y77.366 E38.88672
G0 X111.418 Y76.966
G1 X111.418 Y73.379 E38.98515
G1 X139.677 Y73.379 E39.76056
G1 X139.677 Y76.966 E39.85899
G1 X111.418 Y76.966 E40.63441
G0 X112.014 Y76.806
G1 X112.014 Y73.539 E40.72405
G0 X111.578 Y74.676
G1 X139.517 Y74.676 E41.49069
G0 X138.684 Y73.539
G1 X138.684 Y76.806 E41.58033
G0 X136.017 Y76.806
G1 X136.017 Y73.539 E41.66998
G0 X133.35 Y73.539
G1 X133.35 Y76.806 E41.75962
G0 X130.683 Y76.806
G1 X130.683 Y73.539 E41.84927
G0 X128.016 Y73.539
G1 X128.016 Y76.806 E41.93891
G0 X125.349 Y76.806
G1 X125.349 Y73.539 E42.02856
G0 X122.682 Y73.539
G1 X122.682 Y76.806 E42.1182
G0 X120.015 Y76.806
G1 X120.015 Y73.539 E42.20785
G0 X117.348 Y73.539
G1 X117.348 Y76.806 E42.29749
G0 X114.681 Y76.806
G1 X114.681 Y73.539 E42.38714
G1 F2100 E41.58714
G0 F1800 X111.093 Y78.728
G0 X110.815 Y97.889
G0 X110.618 Y120.579
G1 F2100 E42.38714
G1 F1800 X140.477 Y120.579 E43.20646
G1 X140.477 Y125.766 E43.34879
G1 X110.618 Y125.766 E44.16811
G1 X110.618 Y120.579 E44.31044
G0 X111.018 Y120.979
G1 X140.077 Y120.979 E45.1078
G1 X140.077 Y125.366 E45.22818
