;FLAVOR:Marlin
;TIME:3601
;Filament used: 1.86458m
;Layer height: 0.15
;MINX:72.127
;MINY:46.633
;MINZ:0.15
;MAXX:177.89
;MAXY:163.382
;MAXZ:3
;Generated with Cura_SteamEngine 4.7.1
M82 ;absolute extrusion mode
G21 ; set units to millimeters
G90 ; use absolute positioning
M82 ; absolute extrusion mode
M104 S220 ; set extruder temp
M140 S80 ; set bed temp
M190 S80 ; wait for bed temp
M109 S220 ; wait for extruder temp
G28 W ; home all without mesh bed level
G80 ; mesh bed leveling
G92 E0.0 ; reset extruder distance position
G1 Y-3.0 F1000.0 ; go outside print area
G1 X60.0 E9.0 F1000.0 ; intro line
G1 X100.0 E21.5 F1000.0 ; intro line
G92 E0.0 ; reset extruder distance position
G92 E0
G92 E0
G1 F2100 E-0.8
;LAYER_COUNT:20
;LAYER:0
M107
G0 F3600 X75.024 Y52.141 Z0.15
;TYPE:SKIRT
G1 F2100 E0
G1 F1800 X75.334 Y51.703 E0.01472
G1 X75.898 Y51.137 E0.03665
G1 X75.977 Y51.065 E0.03958
G1 X77.761 Y49.505 E0.10461
G1 X78.34 Y49.012 E0.12548
G1 X78.773 Y48.696 E0.14019
G1 X79.216 Y48.462 E0.15393
G1 X79.63 Y48.279 E0.16635
G1 X81.809 Y47.377 E0.23106
G1 X82.48 Y47.11 E0.25088
G1 X82.992 Y46.949 E0.26561
G1 X83.757 Y46.843 E0.2868
G1 X83.963 Y46.826 E0.29247
G1 X86.332 Y46.669 E0.35762
G1 X87.023 Y46.633 E0.37661
G1 X87.559 Y46.645 E0.39132
G1 X88.081 Y46.735 E0.40585
G1 X88.829 Y46.922 E0.42701
G1 X91.113 Y47.527 E0.49184
G1 X91.833 Y47.756 E0.51257
G1 X92.022 Y47.834 E0.51818
G1 X94.406 Y48.874 E0.58955
G1 X96.929 Y49.891 E0.6642
G1 X99.495 Y50.842 E0.73929
G1 X102.088 Y51.72 E0.81441
G1 X104.678 Y52.517 E0.88876
G1 X107.314 Y53.246 E0.96381
G1 X109.95 Y53.897 E1.03831
G1 X112.584 Y54.47 E1.11228
G1 X112.596 Y54.471 E1.11261
G1 X115.289 Y54.976 E1.18779
G1 X118.012 Y55.407 E1.26344
G1 X120.68 Y55.751 E1.33726
G1 X123.408 Y56.026 E1.41249
G1 X126.123 Y56.222 E1.48718
G1 X128.855 Y56.342 E1.56222
G1 X131.585 Y56.384 E1.63714
G1 X134.315 Y56.35 E1.71205
G1 X137.044 Y56.238 E1.787
G1 X139.733 Y56.051 E1.86096
G1 X142.499 Y55.78 E1.93723
G1 X143.618 Y55.646 E1.96815
G1 X143.721 Y55.636 E1.97099
G1 X144.425 Y55.637 E1.99031
G1 X145.244 Y55.718 E2.01289
G1 X146.363 Y55.847 E2.0438
G1 X146.946 Y55.927 E2.05994
G1 X147.469 Y56.046 E2.07466
G1 X147.969 Y56.241 E2.08939
G1 X148.373 Y56.467 E2.10209
G1 X149.256 Y57.04 E2.13097
G1 X149.896 Y57.474 E2.15219
G1 X150.469 Y57.874 E2.17137
G1 X150.884 Y58.213 E2.18607
G1 X151.34 Y58.737 E2.20513
G1 X151.433 Y58.867 E2.20952
G1 X153.049 Y61.058 E2.28422
G1 X154.733 Y63.211 E2.35922
G1 X156.483 Y65.32 E2.43442
G1 X158.281 Y67.367 E2.50918
G1 X160.139 Y69.368 E2.58411
G1 X162.039 Y71.3 E2.65846
G1 X164.013 Y73.197 E2.73359
G1 X166.029 Y75.026 E2.80828
G1 X168.083 Y76.787 E2.88252
G1 X170.234 Y78.53 E2.95848
G1 X172.398 Y80.182 E3.03319
G1 X172.858 Y80.512 E3.04872
G1 X174.042 Y81.384 E3.08907
G1 X174.618 Y81.831 E3.10908
G1 X175.163 Y82.266 E3.12821
G1 X175.694 Y82.701 E3.14705
G1 X176.083 Y83.071 E3.16178
G1 X176.412 Y83.494 E3.17648
G1 X176.681 Y83.966 E3.19139
G1 X176.903 Y84.415 E3.20513
G1 X177.246 Y85.126 E3.2268
G1 X177.543 Y85.765 E3.24613
G1 X177.732 Y86.266 E3.26082
G1 X177.867 Y87.006 E3.28146
G1 X177.883 Y87.301 E3.28957
G1 X177.89 Y87.854 E3.30475
G1 X177.89 Y88.634 E3.32615
G1 X177.879 Y89.347 E3.34572
G1 X177.836 Y89.847 E3.35949
G1 X177.674 Y90.878 E3.38812
G1 X177.576 Y91.443 E3.40386
G1 X177.19 Y94.132 E3.4784
G1 X176.884 Y96.791 E3.55184
G1 X176.643 Y99.572 E3.62844
G1 X176.486 Y102.291 E3.70317
G1 X176.406 Y104.988 E3.77721
G1 X176.402 Y107.718 E3.85212
G1 X176.476 Y110.449 E3.92708
G1 X176.629 Y113.211 E4.00299
G1 X176.851 Y115.863 E4.07601
G1 X177.159 Y118.606 E4.15175
G1 X177.54 Y121.311 E4.22671
G1 X177.747 Y122.54 E4.26091
G1 X177.838 Y123.129 E4.27726
G1 X177.882 Y123.698 E4.29292
G1 X177.89 Y124.208 E4.30692
G1 X177.89 Y125.027 E4.32939
G1 X177.88 Y125.732 E4.34874
G1 X177.832 Y126.266 E4.36345
G1 X177.706 Y126.787 E4.37816
G1 X177.498 Y127.307 E4.39353
G1 X177.289 Y127.753 E4.40704
G1 X176.938 Y128.481 E4.42922
G1 X176.63 Y129.096 E4.44809
G1 X176.355 Y129.556 E4.4628
G1 X176.014 Y129.971 E4.47753
G1 X175.624 Y130.327 E4.49202
G1 X175.191 Y130.681 E4.50737
G1 X174.624 Y131.133 E4.52727
G1 X174.053 Y131.575 E4.54708
G1 X173.605 Y131.871 E4.56182
G1 X173.169 Y132.077 E4.57505
G1 X172.048 Y132.519 E4.60811
G1 X171.458 Y132.743 E4.62543
G1 X168.924 Y133.786 E4.70062
G1 X166.458 Y134.887 E4.77472
G1 X163.963 Y136.084 E4.85066
G1 X161.545 Y137.33 E4.9253
G1 X159.197 Y138.625 E4.99887
G1 X156.816 Y140.028 E5.07471
G1 X154.531 Y141.462 E5.14873
G1 X152.226 Y143.002 E5.2248
G1 X150.021 Y144.566 E5.29898
G1 X147.859 Y146.195 E5.37326
G1 X145.718 Y147.905 E5.44844
G1 X143.632 Y149.669 E5.5234
G1 X141.585 Y151.502 E5.5988
G1 X139.625 Y153.359 E5.67289
G1 X137.702 Y155.288 E5.74763
G1 X135.819 Y157.286 E5.82296
G1 X134.023 Y159.306 E5.89713
G1 X133.459 Y159.98 E5.92125
G1 X133.408 Y160.032 E5.92324
G1 X132.527 Y161.066 E5.96052
G1 X132.086 Y161.502 E5.97753
G1 X131.677 Y161.796 E5.99136
G1 X131.306 Y162.024 E6.0033
G1 X130.336 Y162.584 E6.03404
G1 X129.743 Y162.915 E6.05267
G1 X129.256 Y163.141 E6.06741
G1 X128.742 Y163.292 E6.08211
G1 X128.103 Y163.37 E6.09977
G1 X127.673 Y163.382 E6.11157
G1 X126.561 Y163.381 E6.14209
G1 X125.858 Y163.37 E6.16138
G1 X125.324 Y163.321 E6.17609
G1 X124.803 Y163.194 E6.19081
G1 X124.208 Y162.94 E6.20856
G1 X123.763 Y162.696 E6.22248
G1 X122.925 Y162.208 E6.24909
G1 X122.267 Y161.812 E6.27017
G1 X121.829 Y161.503 E6.28488
G1 X121.442 Y161.131 E6.2996
G1 X121.055 Y160.611 E6.31739
G1 X120.743 Y160.09 E6.33405
G1 X120.622 Y159.878 E6.34075
G1 X119.238 Y157.533 E6.41547
G1 X117.777 Y155.212 E6.49072
G1 X116.274 Y152.965 E6.5649
G1 X114.707 Y150.763 E6.63906
G1 X113.031 Y148.542 E6.71541
G1 X111.345 Y146.433 E6.7895
G1 X109.567 Y144.336 E6.86494
G1 X107.782 Y142.346 E6.93829
G1 X105.886 Y140.348 E7.01387
G1 X105.656 Y140.117 E7.02282
G1 X105.123 Y139.564 E7.04389
G1 X104.794 Y139.171 E7.05796
G1 X104.698 Y139.035 E7.06252
G1 X104.355 Y138.534 E7.07918
G1 X103.43 Y137.145 E7.12498
G1 X103.071 Y136.589 E7.14314
G1 X102.814 Y136.118 E7.15786
G1 X102.59 Y135.456 E7.17704
G1 X102.551 Y135.287 E7.1818
G1 X102.438 Y134.749 E7.19688
G1 X102.084 Y132.961 E7.24689
G1 X101.502 Y130.226 E7.32362
G1 X100.865 Y127.602 E7.39771
G1 X100.147 Y124.97 E7.47257
G1 X99.357 Y122.364 E7.5473
G1 X98.481 Y119.747 E7.62302
G1 X97.554 Y117.219 E7.69691
G1 X96.546 Y114.69 E7.77161
G1 X95.45 Y112.152 E7.84747
G1 X94.315 Y109.715 E7.92123
G1 X93.082 Y107.254 E7.99676
G1 X91.804 Y104.871 E8.07096
G1 X90.438 Y102.491 E8.14626
G1 X89.022 Y100.177 E8.2207
G1 X87.979 Y98.597 E8.27265
G1 X87.959 Y98.562 E8.27376
G1 X87.218 Y97.419 E8.31113
G1 X87.144 Y97.3 E8.31498
G1 X86.9 Y96.822 E8.32971
G1 X86.676 Y96.168 E8.34867
G1 X86.649 Y96.083 E8.35112
G1 X86.373 Y95.146 E8.37793
G1 X86.214 Y94.578 E8.39411
G1 X85.443 Y91.971 E8.46871
G1 X84.597 Y89.382 E8.54345
G1 X83.669 Y86.794 E8.61889
G1 X82.686 Y84.276 E8.69306
G1 X81.617 Y81.755 E8.7682
G1 X80.486 Y79.282 E8.84281
G1 X79.279 Y76.829 E8.91783
G1 X78.01 Y74.424 E8.99245
G1 X76.67 Y72.051 E9.06722
G1 X74.87 Y69.088 E9.16235
G1 X74.591 Y68.648 E9.17665
G1 X74.265 Y68.048 E9.19539
G1 X74.218 Y67.954 E9.19827
G1 X73.18 Y65.808 E9.26368
G1 X72.881 Y65.167 E9.28309
G1 X72.692 Y64.665 E9.29781
G1 X72.531 Y63.831 E9.32112
G1 X72.517 Y63.733 E9.32383
G1 X72.198 Y61.186 E9.39427
G1 X72.136 Y60.602 E9.41038
G1 X72.127 Y60.066 E9.42509
G1 X72.183 Y59.608 E9.43775
G1 X72.33 Y58.822 E9.45969
G1 X72.73 Y56.861 E9.51461
G1 X72.879 Y56.18 E9.53374
G1 X72.987 Y55.793 E9.54477
G1 X73.238 Y55.214 E9.56208
G1 X73.463 Y54.803 E9.57494
G1 X74.664 Y52.74 E9.64044
G1 X75.024 Y52.141 E9.65962
G0 F3600 X75.367 Y52.347
G1 F1800 X75.661 Y51.935 E9.6735
G1 X76.17 Y51.43 E9.69318
G1 X76.24 Y51.366 E9.69578
G1 X78.02 Y49.81 E9.76066
G1 X78.599 Y49.317 E9.78152
G1 X79.009 Y49.02 E9.79541
G1 X79.712 Y48.679 E9.81685
G1 X81.957 Y47.749 E9.88353
G1 X82.628 Y47.482 E9.90335
G1 X83.111 Y47.333 E9.91722
G1 X83.797 Y47.241 E9.93621
G1 X83.99 Y47.225 E9.94152
G1 X86.353 Y47.068 E10.00651
G1 X87.044 Y47.032 E10.02549
G1 X87.549 Y47.046 E10.03936
G1 X87.984 Y47.123 E10.05148
G1 X88.726 Y47.308 E10.07246
G1 X90.922 Y47.889 E10.13479
G1 X91.683 Y48.127 E10.15667
G1 X91.862 Y48.201 E10.16198
G1 X94.245 Y49.241 E10.23333
G1 X96.776 Y50.261 E10.30821
G1 X99.364 Y51.22 E10.38394
G1 X101.947 Y52.095 E10.45877
G1 X104.591 Y52.908 E10.53467
G1 X107.192 Y53.628 E10.60873
G1 X109.874 Y54.29 E10.68453
G1 X112.51 Y54.863 E10.75855
G1 X112.522 Y54.864 E10.75888
G1 X115.218 Y55.37 E10.83415
G1 X117.935 Y55.799 E10.90963
G1 X120.661 Y56.151 E10.98505
G1 X123.373 Y56.425 E11.05984
G1 X126.115 Y56.622 E11.13528
G1 X128.831 Y56.742 E11.20988
G1 X131.584 Y56.784 E11.28543
G1 X134.338 Y56.749 E11.361
G1 X137.052 Y56.638 E11.43553
G1 X139.764 Y56.449 E11.51013
G1 X142.541 Y56.177 E11.58669
G1 X143.657 Y56.044 E11.61753
G1 X143.76 Y56.034 E11.62037
G1 X144.386 Y56.035 E11.63755
G1 X145.198 Y56.116 E11.65994
G1 X146.313 Y56.244 E11.69074
G1 X146.887 Y56.323 E11.70664
G1 X147.38 Y56.437 E11.72052
G1 X147.848 Y56.627 E11.73438
G1 X148.155 Y56.803 E11.74409
G1 X149.031 Y57.371 E11.77274
G1 X149.667 Y57.802 E11.79382
G1 X150.24 Y58.202 E11.813
G1 X150.63 Y58.523 E11.82686
G1 X151.014 Y58.969 E11.84301
G1 X151.087 Y59.072 E11.84647
G1 X152.744 Y61.318 E11.92306
G1 X154.422 Y63.463 E11.99778
G1 X156.176 Y65.577 E12.07316
G1 X157.986 Y67.638 E12.14842
G1 X159.844 Y69.638 E12.22333
G1 X161.742 Y71.569 E12.29763
G1 X163.75 Y73.498 E12.37403
G1 X165.765 Y75.328 E12.44872
G1 X167.833 Y77.101 E12.52347
G1 X169.985 Y78.843 E12.59944
G1 X172.128 Y80.479 E12.67342
G1 X172.621 Y80.834 E12.69009
G1 X173.805 Y81.706 E12.73044
G1 X174.368 Y82.143 E12.74999
G1 X174.91 Y82.576 E12.76903
G1 X175.441 Y83.011 E12.78786
G1 X175.805 Y83.361 E12.80172
G1 X176.11 Y83.764 E12.81559
G1 X176.527 Y84.557 E12.84017
G1 X176.883 Y85.294 E12.86263
G1 X177.18 Y85.933 E12.88197
G1 X177.356 Y86.407 E12.89584
G1 X177.469 Y87.037 E12.9134
G1 X177.483 Y87.306 E12.92079
G1 X177.49 Y87.859 E12.93597
G1 X177.49 Y88.627 E12.95704
G1 X177.479 Y89.34 E12.97661
G1 X177.441 Y89.785 E12.98886
G1 X177.28 Y90.809 E13.01731
G1 X177.186 Y91.35 E13.03238
G1 X176.791 Y94.101 E13.10864
G1 X176.481 Y96.799 E13.18315
G1 X176.246 Y99.514 E13.25793
G1 X176.088 Y102.253 E13.33321
G1 X176.006 Y105.011 E13.40893
G1 X176.002 Y107.728 E13.48348
G1 X176.077 Y110.481 E13.55905
G1 X176.227 Y113.195 E13.63363
G1 X176.455 Y115.923 E13.70875
G1 X176.759 Y118.636 E13.78366
G1 X177.148 Y121.398 E13.8602
G1 X177.351 Y122.601 E13.89367
G1 X177.442 Y123.19 E13.91003
G1 X177.482 Y123.711 E13.92436
G1 X177.49 Y124.213 E13.93814
G1 X177.49 Y125.021 E13.96031
G1 X177.48 Y125.726 E13.97966
G1 X177.433 Y126.23 E13.99355
G1 X177.221 Y126.942 E14.01393
G1 X176.942 Y127.551 E14.03231
G1 X176.58 Y128.302 E14.05519
G1 X176.272 Y128.917 E14.07406
G1 X176.011 Y129.35 E14.08794
G1 X175.685 Y129.736 E14.1018
G1 X175.371 Y130.017 E14.11336
G1 X174.941 Y130.368 E14.12859
G1 X174.379 Y130.816 E14.14831
G1 X173.808 Y131.258 E14.16813
G1 X173.385 Y131.535 E14.182
G1 X173.023 Y131.705 E14.19298
G1 X171.906 Y132.145 E14.22592
G1 X171.312 Y132.37 E14.24335
G1 X168.759 Y133.422 E14.31911
G1 X166.287 Y134.524 E14.39338
G1 X163.799 Y135.718 E14.4691
G1 X161.362 Y136.974 E14.54433
G1 X158.965 Y138.296 E14.61945
G1 X156.622 Y139.678 E14.69409
G1 X154.302 Y141.134 E14.76925
G1 X152.035 Y142.647 E14.84403
G1 X149.772 Y144.253 E14.92018
G1 X147.597 Y145.891 E14.99489
G1 X145.473 Y147.588 E15.06949
G1 X143.373 Y149.364 E15.14496
G1 X141.326 Y151.197 E15.22035
G1 X139.35 Y153.069 E15.29504
G1 X137.392 Y155.034 E15.37116
G1 X135.529 Y157.01 E15.44568
G1 X133.731 Y159.033 E15.51995
G1 X133.152 Y159.724 E15.54468
G1 X133.1 Y159.777 E15.54672
G1 X132.222 Y160.807 E15.58386
G1 X131.83 Y161.194 E15.59897
G1 X131.19 Y161.627 E15.62018
G1 X131.106 Y161.678 E15.62287
G1 X130.141 Y162.235 E15.65345
G1 X129.548 Y162.566 E15.67208
G1 X129.088 Y162.777 E15.68597
G1 X128.601 Y162.913 E15.69984
G1 X128.091 Y162.97 E15.71392
G1 X127.673 Y162.982 E15.7254
G1 X126.567 Y162.981 E15.75575
G1 X125.864 Y162.97 E15.77504
G1 X125.361 Y162.922 E15.7889
G1 X124.871 Y162.795 E15.80279
G1 X124.398 Y162.588 E15.81696
G1 X123.935 Y162.333 E15.83146
G1 X123.131 Y161.866 E15.85698
G1 X122.473 Y161.47 E15.87805
G1 X122.062 Y161.176 E15.89192
G1 X121.702 Y160.82 E15.90581
G1 X121.396 Y160.402 E15.92002
G1 X121.089 Y159.889 E15.93643
G1 X120.993 Y159.721 E15.94174
G1 X119.555 Y157.285 E16.01936
G1 X118.131 Y155.024 E16.09268
G1 X116.604 Y152.74 E16.16807
G1 X115.003 Y150.489 E16.24386
G1 X113.365 Y148.319 E16.31847
G1 X111.646 Y146.17 E16.39398
G1 X109.886 Y144.094 E16.46866
G1 X108.051 Y142.049 E16.54405
G1 X106.159 Y140.054 E16.6195
G1 X105.944 Y139.84 E16.62782
G1 X105.411 Y139.287 E16.6489
G1 X105.07 Y138.869 E16.6637
G1 X104.688 Y138.313 E16.68221
G1 X103.766 Y136.928 E16.72786
G1 X103.407 Y136.372 E16.74602
G1 X103.167 Y135.927 E16.7599
G1 X102.979 Y135.365 E16.77616
G1 X102.942 Y135.204 E16.78069
G1 X102.83 Y134.671 E16.79563
G1 X102.475 Y132.877 E16.84582
G1 X101.897 Y130.165 E16.9219
G1 X101.245 Y127.475 E16.99785
G1 X100.53 Y124.854 E17.0724
G1 X99.733 Y122.226 E17.14776
G1 X98.875 Y119.663 E17.22192
G1 X97.925 Y117.07 E17.29769
G1 X96.908 Y114.52 E17.37303
G1 X95.821 Y112.003 E17.44826
G1 X94.663 Y109.517 E17.52351
G1 X93.449 Y107.093 E17.5979
G1 X92.145 Y104.662 E17.67359
G1 X90.783 Y102.288 E17.74869
G1 X89.359 Y99.963 E17.82351
G1 X88.313 Y98.377 E17.87564
G1 X88.301 Y98.355 E17.87633
G1 X87.553 Y97.202 E17.91404
G1 X87.486 Y97.093 E17.91755
G1 X87.175 Y96.414 E17.93804
G1 X87.033 Y95.969 E17.95086
G1 X86.758 Y95.039 E17.97747
G1 X86.599 Y94.471 E17.99366
G1 X85.824 Y91.849 E18.06868
G1 X84.968 Y89.228 E18.14434
G1 X84.048 Y86.662 E18.21914
G1 X83.063 Y84.142 E18.29338
G1 X81.978 Y81.582 E18.36967
G1 X80.845 Y79.104 E18.44444
G1 X79.634 Y76.644 E18.51967
G1 X78.369 Y74.247 E18.59405
G1 X77.009 Y71.838 E18.66995
G1 X75.196 Y68.853 E18.76579
G1 X74.802 Y68.179 E18.78721
G1 X74.578 Y67.78 E18.79976
G1 X73.543 Y65.639 E18.86502
G1 X73.244 Y64.998 E18.88442
G1 X73.067 Y64.524 E18.89831
G1 X72.926 Y63.771 E18.91933
G1 X72.596 Y61.141 E18.99206
G1 X72.535 Y60.565 E19.00795
G1 X72.528 Y60.06 E19.02181
G1 X72.576 Y59.682 E19.03227
G1 X72.722 Y58.901 E19.05407
G1 X73.121 Y56.946 E19.10882
G1 X73.27 Y56.265 E19.12795
G1 X73.366 Y55.919 E19.1378
G1 X73.589 Y55.405 E19.15318
G1 X73.809 Y55.004 E19.16573
G1 X75.007 Y52.946 E19.23107
G1 X75.367 Y52.347 E19.25024
G1 F2100 E18.45024
;MESH:1x-power-suply-keeper.stl
G0 F3600 X77.341 Y53.626
G0 X78.43 Y54.259
G0 X83.977 Y52.003
G0 X87.155 Y51.774
G0 X90.211 Y52.672
G0 X92.758 Y54.582
G0 X94.476 Y57.267
G0 X95.188 Y60.618
G0 X88.353 Y60.668
;TYPE:WALL-INNER
G1 F2100 E19.25024
G1 F1800 X87.722 Y59.149 E19.29538
G1 X86.203 Y58.518 E19.34051
G1 X84.683 Y59.149 E19.38567
G1 X84.054 Y60.668 E19.43078
G1 X84.683 Y62.188 E19.47592
G1 X86.203 Y62.817 E19.52106
G1 X87.722 Y62.188 E19.56617
G1 X88.353 Y60.668 E19.61133
G0 F3600 X91.496 Y62.232
G0 X94.379 Y64.883
G1 F1800 X91.564 Y62.068 E19.72057
G1 X90.483 Y62.068 E19.75023
G1 X89.041 Y64.01 E19.8166
G1 X87.284 Y64.917 E19.87086
G1 X85.308 Y64.96 E19.92509
G1 X83.51 Y64.128 E19.97946
G1 X82.265 Y62.598 E20.03358
G1 X81.82 Y60.667 E20.08796
G1 X82.264 Y58.741 E20.14219
G1 X83.51 Y57.209 E20.19638
G1 X85.308 Y56.377 E20.25074
G1 X87.284 Y56.42 E20.30497
G1 X89.041 Y57.327 E20.35923
G1 X90.483 Y59.268 E20.42558
G1 X92.724 Y59.268 E20.48707
G1 X94.59 Y61.135 E20.5595
G1 X95.379 Y60.707 E20.58413
G1 X94.628 Y57.203 E20.68246
G1 X92.879 Y54.471 E20.77148
G1 X90.284 Y52.525 E20.86048
G1 X87.173 Y51.611 E20.94945
G1 X83.937 Y51.844 E21.03848
G1 X80.989 Y53.198 E21.12749
G1 X78.702 Y55.498 E21.21649
G1 X77.367 Y58.454 E21.30549
G1 X77.15 Y61.691 E21.39451
G1 X78.03 Y64.624 E21.47854
G1 X78.086 Y64.8 E21.48361
G1 X80.043 Y67.38 E21.57246
G1 X82.786 Y69.113 E21.66149
G1 X85.961 Y69.774 E21.75048
G1 X89.166 Y69.282 E21.83946
G1 X91.997 Y67.698 E21.92847
G1 X94.379 Y64.883 E22.02966
G0 F3600 X94.998 Y65.502
G1 F1800 X94.859 Y65.655 E22.03533
