;FLAVOR:Marlin
;TIME:3446
;Filament used: 2.30807m
;Layer height: 0.15
;MINX:103
;MINY:92.5
;MINZ:0.15
;MAXX:147.127
;MAXY:114.443
;MAXZ:30
;Generated with Cura_SteamEngine 4.7.1
M82 ;absolute extrusion mode
G21 ; set units to millimeters
G90 ; use absolute positioning
M82 ; absolute extrusion mode
M104 S230 ; set extruder temp
M140 S80 ; set bed temp
M190 S80 ; wait for bed temp
M109 S230 ; wait for extruder temp
G28 W ; home all without mesh bed level
G80 ; mesh bed leveling
G92 E0.0 ; reset extruder distance position
G1 Y-3.0 F1000.0 ; go outside print area
G1 X60.0 E9.0 F1000.0 ; intro line
G1 X100.0 E21.5 F1000.0 ; intro line
G92 E0.0 ; reset extruder distance position
G92 E0
G92 E0
G1 F2100 E-0.8
;LAYER_COUNT:200
;LAYER:0
M107
G0 F1800 X104.077 Y95.785 Z0.15
;TYPE:SKIRT
G1 F2100 E0
G1 F1800 X104.473 Y95.371 E0.01572
G1 X105.731 Y94.111 E0.06458
G1 X106.216 Y93.64 E0.08313
G1 X106.649 Y93.276 E0.09865
G1 X107.128 Y92.977 E0.11414
G1 X107.645 Y92.748 E0.12966
G1 X108.189 Y92.594 E0.14517
G1 X108.87 Y92.512 E0.16399
G1 X109.513 Y92.5 E0.18164
G1 X119.967 Y92.5 E0.46849
G1 X120.815 Y92.512 E0.49177
G1 X122.201 Y92.522 E0.5298
G1 X128.117 Y92.522 E0.69213
G1 X129.907 Y92.506 E0.74125
G1 X130.206 Y92.501 E0.74945
G1 X140.35 Y92.5 E1.0278
G1 X141.051 Y92.51 E1.04704
G1 X141.614 Y92.558 E1.06254
G1 X142.165 Y92.685 E1.07806
G1 X142.693 Y92.889 E1.09359
G1 X143.186 Y93.164 E1.10908
G1 X143.705 Y93.569 E1.12715
G1 X144.104 Y93.948 E1.14225
G1 X145.388 Y95.232 E1.19207
G1 X145.86 Y95.718 E1.21066
G1 X146.225 Y96.151 E1.2262
G1 X146.524 Y96.63 E1.2417
G1 X146.753 Y97.147 E1.25721
G1 X146.907 Y97.691 E1.27272
G1 X146.99 Y98.398 E1.29226
G1 X147 Y99.014 E1.30916
G1 X147 Y104.23 E1.45229
G1 X147.04 Y107.023 E1.52893
G1 X147.089 Y108.178 E1.56066
G1 X147.125 Y109.412 E1.59453
G1 X147.127 Y109.763 E1.60416
G1 X147.117 Y110.489 E1.62409
G1 X147.069 Y111.052 E1.63959
G1 X146.942 Y111.603 E1.65511
G1 X146.739 Y112.131 E1.67063
G1 X146.464 Y112.625 E1.68614
G1 X146.122 Y113.075 E1.70165
G1 X145.719 Y113.472 E1.71717
G1 X145.265 Y113.808 E1.73267
G1 X144.768 Y114.077 E1.74818
G1 X144.238 Y114.274 E1.76369
G1 X143.685 Y114.393 E1.77921
G1 X142.909 Y114.441 E1.80055
G1 X142.797 Y114.443 E1.80362
G1 X107.782 Y114.443 E2.76442
G1 X107.084 Y114.434 E2.78357
G1 X106.521 Y114.386 E2.79908
G1 X105.97 Y114.26 E2.81459
G1 X105.442 Y114.058 E2.8301
G1 X104.948 Y113.783 E2.84562
G1 X104.498 Y113.441 E2.86112
G1 X104.1 Y113.039 E2.87665
G1 X103.764 Y112.585 E2.89214
G1 X103.494 Y112.088 E2.90766
G1 X103.297 Y111.558 E2.92318
G1 X103.177 Y111.006 E2.93868
G1 X103.146 Y110.72 E2.94657
G1 X103.069 Y109.635 E2.97642
G1 X103.016 Y108.722 E3.00152
G1 X103 Y108.171 E3.01664
G1 X103 Y99.15 E3.26417
G1 X103.01 Y98.448 E3.28344
G1 X103.058 Y97.885 E3.29894
G1 X103.185 Y97.334 E3.31446
G1 X103.389 Y96.806 E3.32999
G1 X103.664 Y96.313 E3.34548
G1 X104.077 Y95.785 E3.36387
G0 X104.512 Y95.905
G1 X104.785 Y95.623 E3.37464
G1 X106.01 Y94.398 E3.42218
G1 X106.495 Y93.927 E3.44073
G1 X106.906 Y93.583 E3.45544
G1 X107.364 Y93.305 E3.47014
G1 X107.859 Y93.097 E3.48487
G1 X108.379 Y92.965 E3.49959
G1 X108.883 Y92.912 E3.5135
G1 X109.518 Y92.9 E3.53093
G1 X119.961 Y92.9 E3.81748
G1 X120.809 Y92.912 E3.84075
G1 X122.198 Y92.922 E3.87886
G1 X128.121 Y92.922 E4.04139
G1 X129.911 Y92.906 E4.09051
G1 X130.214 Y92.901 E4.09882
G1 X140.344 Y92.9 E4.37679
G1 X141.045 Y92.91 E4.39602
G1 X141.58 Y92.958 E4.41076
G1 X142.101 Y93.084 E4.42547
G1 X142.597 Y93.287 E4.44018
G1 X143.058 Y93.561 E4.45489
G1 X143.587 Y94.004 E4.47383
G1 X143.857 Y94.265 E4.48413
G1 X145.102 Y95.511 E4.53246
G1 X145.574 Y95.997 E4.55105
G1 X145.917 Y96.408 E4.56574
G1 X146.196 Y96.866 E4.58046
G1 X146.404 Y97.361 E4.59519
G1 X146.536 Y97.88 E4.60988
G1 X146.59 Y98.408 E4.62445
G1 X146.6 Y99.019 E4.64122
G1 X146.6 Y104.236 E4.78437
G1 X146.639 Y107.013 E4.86058
G1 X146.688 Y108.14 E4.89153
G1 X146.727 Y109.529 E4.92966
G1 X146.727 Y109.758 E4.93594
G1 X146.717 Y110.484 E4.95586
G1 X146.669 Y111.018 E4.97058
G1 X146.543 Y111.539 E4.98528
G1 X146.341 Y112.036 E5.00001
G1 X146.067 Y112.497 E5.01472
G1 X145.728 Y112.912 E5.02942
G1 X145.331 Y113.273 E5.04415
G1 X144.885 Y113.57 E5.05885
G1 X144.399 Y113.798 E5.07358
G1 X143.885 Y113.951 E5.0883
G1 X143.218 Y114.033 E5.10674
G1 X142.797 Y114.043 E5.11829
G1 X107.788 Y114.043 E6.07893
G1 X107.09 Y114.034 E6.09808
G1 X106.555 Y113.987 E6.11282
G1 X106.034 Y113.861 E6.12753
G1 X105.537 Y113.659 E6.14225
G1 X105.076 Y113.386 E6.15695
G1 X104.66 Y113.047 E6.17167
G1 X104.299 Y112.651 E6.18638
G1 X104.001 Y112.205 E6.20109
G1 X103.773 Y111.719 E6.21583
G1 X103.62 Y111.205 E6.23054
G1 X103.545 Y110.692 E6.24477
G1 X103.468 Y109.612 E6.27448
G1 X103.415 Y108.699 E6.29957
G1 X103.4 Y108.171 E6.31407
G1 X103.4 Y99.156 E6.56143
G1 X103.41 Y98.454 E6.5807
G1 X103.458 Y97.92 E6.59541
G1 X103.584 Y97.398 E6.61014
G1 X103.787 Y96.902 E6.62485
G1 X104.061 Y96.441 E6.63957
G1 X104.512 Y95.905 E6.65879
G0 X104.805 Y96.177
G1 X105.068 Y95.906 E6.66915
G1 X106.289 Y94.685 E6.71653
G1 X106.774 Y94.214 E6.73508
G1 X107.163 Y93.892 E6.74894
G1 X107.598 Y93.635 E6.7628
G1 X108.069 Y93.449 E6.7767
G1 X108.562 Y93.34 E6.79055
G1 X109.114 Y93.305 E6.80573
G1 X109.523 Y93.3 E6.81695
G1 X119.955 Y93.3 E7.1032
G1 X120.803 Y93.312 E7.12647
G1 X122.196 Y93.322 E7.1647
G1 X128.124 Y93.322 E7.32736
G1 X129.914 Y93.306 E7.37648
G1 X130.221 Y93.301 E7.3849
G1 X140.339 Y93.3 E7.66254
G1 X141.04 Y93.31 E7.68178
G1 X141.543 Y93.357 E7.69564
G1 X142.033 Y93.483 E7.70952
G1 X142.496 Y93.685 E7.72338
G1 X142.923 Y93.957 E7.73727
G1 X143.316 Y94.298 E7.75155
G1 X143.546 Y94.52 E7.76032
G1 X144.815 Y95.79 E7.80959
G1 X145.287 Y96.276 E7.82818
G1 X145.609 Y96.665 E7.84203
G1 X145.866 Y97.1 E7.8559
G1 X146.052 Y97.571 E7.86979
G1 X146.161 Y98.064 E7.88365
G1 X146.194 Y98.568 E7.8975
G1 X146.2 Y99.024 E7.91002
G1 X146.2 Y104.242 E8.0532
G1 X146.24 Y107.035 E8.12984
G1 X146.29 Y108.202 E8.1619
G1 X146.326 Y109.436 E8.19577
G1 X146.327 Y109.752 E8.20444
G1 X146.317 Y110.478 E8.22436
G1 X146.27 Y110.981 E8.23823
G1 X146.144 Y111.471 E8.25211
G1 X145.943 Y111.935 E8.26599
G1 X145.671 Y112.361 E8.27985
G1 X145.336 Y112.74 E8.29373
G1 X144.945 Y113.06 E8.3076
G1 X144.509 Y113.316 E8.32147
G1 X144.038 Y113.499 E8.33534
G1 X143.543 Y113.605 E8.34923
G1 X142.887 Y113.642 E8.36726
G1 X107.793 Y113.643 E9.33022
G1 X107.095 Y113.634 E9.34938
G1 X106.591 Y113.587 E9.36327
G1 X106.101 Y113.462 E9.37714
G1 X105.637 Y113.261 E9.39102
G1 X105.211 Y112.99 E9.40487
G1 X104.832 Y112.655 E9.41875
G1 X104.511 Y112.264 E9.43263
G1 X104.256 Y111.828 E9.44649
G1 X104.072 Y111.357 E9.46037
G1 X103.944 Y110.663 E9.47973
G1 X103.867 Y109.588 E9.5093
G1 X103.814 Y108.675 E9.5344
G1 X103.8 Y108.171 E9.54823
G1 X103.8 Y99.161 E9.79546
G1 X103.81 Y98.459 E9.81473
G1 X103.857 Y97.956 E9.82859
G1 X103.983 Y97.466 E9.84247
G1 X104.185 Y97.003 E9.85634
G1 X104.456 Y96.576 E9.87021
G1 X104.805 Y96.177 E9.88476
G1 F2100 E9.08476
G0 F1800 X106.172 Y109.328
G0 X107.327 Y109.4
;TYPE:SUPPORT
G1 F2100 E9.88476
G1 F1800 X108.515 Y109.4 E9.91736
G1 X108.515 Y109.475 E9.91941
G1 X108.815 Y109.475 E9.92765
G1 X108.815 Y110.243 E9.94872
G1 X107.327 Y110.243 E9.98955
G1 X107.327 Y109.4 E10.01268
G0 X107.727 Y109.8
G1 X108.115 Y109.8 E10.02333
G1 X108.115 Y109.843 E10.02451
G1 X107.727 Y109.843 E10.03515
G1 X107.727 Y109.8 E10.03633
G0 X141.185 Y109.475
G1 X141.485 Y109.475 E10.04457
G1 X141.485 Y109.4 E10.04662
G1 X142.927 Y109.4 E10.08619
G1 X142.927 Y110.243 E10.10932
G1 X141.185 Y110.243 E10.15712
G1 X141.185 Y109.475 E10.1782
G0 X141.885 Y109.8
G1 X142.527 Y109.8 E10.19581
G1 X142.527 Y109.843 E10.19699
G1 X141.885 Y109.843 E10.21461
G1 X141.885 Y109.8 E10.21579
G1 F2100 E9.41579
G0 F1800 X143.828 Y109.328
G0 X143.836 Y98.154
G0 X141.346 Y95.664
G0 X129.284 Y95.661
G0 X127.993 Y96.458
G0 X127.793 Y100.475
G1 F2100 E10.21579
G1 F1800 X127.748 Y100.529 E10.21772
G1 X127.312 Y101.02 E10.23574
G1 X127.25 Y101.069 E10.23791
G1 X126.738 Y101.446 E10.25535
G1 X126.07 Y101.748 E10.27547
G1 X125.367 Y101.9 E10.2952
G1 X124.638 Y101.899 E10.31521
G1 X123.99 Y101.763 E10.33338
G1 X123.939 Y101.75 E10.33482
G1 X123.323 Y101.475 E10.35333
G1 X123.269 Y101.449 E10.35497
G1 X122.756 Y101.074 E10.37241
G1 X122.687 Y101.02 E10.37482
G1 X122.252 Y100.53 E10.39279
G1 X122.208 Y100.475 E10.39473
G1 X121.887 Y99.909 E10.41258
G1 X121.855 Y99.844 E10.41457
G1 X121.662 Y99.235 E10.4321
G1 X121.641 Y99.149 E10.43453
G1 X121.582 Y98.508 E10.45219
G1 X121.58 Y98.433 E10.45425
G1 X121.657 Y97.778 E10.47235
G1 X121.672 Y97.708 E10.47431
G1 X122.009 Y96.722 E10.5029
G1 X128.002 Y96.722 E10.66735
G1 X128.097 Y97.041 E10.67648
G1 X128.329 Y97.714 E10.69602
G1 X128.341 Y97.776 E10.69775
G1 X128.419 Y98.429 E10.71579
G1 X128.417 Y98.512 E10.71807
G1 X128.36 Y99.146 E10.73554
G1 X128.34 Y99.224 E10.73775
G1 X128.145 Y99.847 E10.75566
G1 X128.117 Y99.903 E10.75738
G1 X127.793 Y100.475 E10.77542
G0 X127.462 Y100.247
G1 X127.036 Y100.728 E10.79305
G1 X127.003 Y100.754 E10.7942
G1 X126.534 Y101.1 E10.81019
G1 X125.946 Y101.365 E10.82789
G1 X125.324 Y101.5 E10.84536
G1 X124.677 Y101.499 E10.86311
G1 X124.089 Y101.375 E10.8796
G1 X124.067 Y101.369 E10.88022
G1 X123.476 Y101.105 E10.89799
G1 X123.003 Y100.759 E10.91407
G1 X122.962 Y100.727 E10.91549
G1 X122.54 Y100.251 E10.93295
G1 X122.242 Y99.724 E10.94956
G1 X122.226 Y99.691 E10.95057
G1 X122.05 Y99.137 E10.96652
G1 X122.036 Y99.078 E10.96818
G1 X121.982 Y98.491 E10.98436
G1 X121.981 Y98.448 E10.98554
G1 X122.053 Y97.837 E11.00242
G1 X122.057 Y97.819 E11.00292
G1 X122.295 Y97.122 E11.02313
G1 X127.704 Y97.122 E11.17155
G1 X127.716 Y97.163 E11.17273
G1 X127.941 Y97.814 E11.19163
G1 X127.947 Y97.845 E11.19249
G1 X128.018 Y98.446 E11.2091
G1 X128.017 Y98.497 E11.2105
G1 X127.965 Y99.079 E11.22653
G1 X127.958 Y99.105 E11.22727
G1 X127.773 Y99.696 E11.24426
G1 X127.462 Y100.247 E11.26163
G0 X127.134 Y100.015
G1 X126.763 Y100.434 E11.27698
G1 X126.332 Y100.752 E11.29168
G1 X125.82 Y100.983 E11.30709
G1 X125.281 Y101.1 E11.32223
G1 X124.718 Y101.099 E11.33767
G1 X124.197 Y100.989 E11.35229
G1 X123.679 Y100.758 E11.36785
G1 X123.234 Y100.432 E11.38299
G1 X122.868 Y100.019 E11.39813
G1 X122.597 Y99.539 E11.41325
G1 X122.435 Y99.03 E11.42791
G1 X122.431 Y99.013 E11.42839
G1 X122.382 Y98.474 E11.44324
G1 X122.382 Y98.461 E11.4436
G1 X122.446 Y97.919 E11.45857
G1 X122.581 Y97.522 E11.47008
G1 X127.417 Y97.522 E11.60278
G1 X127.553 Y97.915 E11.61419
G1 X127.618 Y98.463 E11.62933
G1 X127.571 Y99.001 E11.64415
G1 X127.403 Y99.537 E11.65956
G1 X127.134 Y100.015 E11.67461
G0 X127.438 Y98.679
G1 X122.561 Y98.679 E11.80844
G0 X122.682 Y99.276
G1 X122.682 Y97.72 E11.85113
G0 X125.349 Y97.682
G1 X125.349 Y100.923 E11.94006
G1 F2100 E11.14006
G0 F1800 X127.993 Y96.458
G0 X128.704 Y95.8
G0 X141.346 Y95.664
G0 X143.836 Y98.154
G0 X143.828 Y109.328
G0 X140.785 Y109.475
;TYPE:SUPPORT-INTERFACE
G1 F2100 E11.94006
G1 F1800 X140.785 Y110.125 E11.9579
G1 X109.215 Y110.125 E12.82417
G1 X109.215 Y109.475 E12.842
G1 X140.785 Y109.475 E13.70827
G1 F2100 E12.90827
;MESH:4x Uchwyt do prowadnic y lower.stl
G0 F1800 X140.785 Y107.88
G0 X139.915 Y107.83
G0 X139.985 Y107.9
;TYPE:WALL-INNER
G1 F2100 E13.70827
G1 F1800 X139.985 Y107.975 E13.71033
G1 X110.015 Y107.975 E14.53269
G1 X110.015 Y107.9 E14.53475
G1 X107.6 Y107.9 E14.60102
G1 X107.6 Y98.748 E14.85215
G1 X109.248 Y97.1 E14.9161
G1 X120.11 Y97.1 E15.21415
G1 X120.22 Y97.1 E15.21717
G1 X120.295 Y97.1 E15.21922
G1 X120.22 Y97.32 E15.22295
G1 X120.198 Y97.428 E15.22545
G1 X120.174 Y97.544 E15.2287
G1 X120.079 Y98.358 E15.25119
G1 X120.082 Y98.587 E15.25747
G1 X120.158 Y99.402 E15.27993
G1 X120.212 Y99.626 E15.28625
G1 X120.46 Y100.408 E15.30877
G1 X120.562 Y100.614 E15.31507
G1 X120.966 Y101.325 E15.33751
G1 X121.11 Y101.503 E15.34379
G1 X121.654 Y102.116 E15.36628
G1 X121.835 Y102.259 E15.37261
G1 X122.498 Y102.743 E15.39514
G1 X122.703 Y102.841 E15.40137
G1 X123.451 Y103.175 E15.42385
G1 X123.672 Y103.228 E15.43009
G1 X124.478 Y103.399 E15.45269
G1 X125.524 Y103.4 E15.4814
G1 X126.546 Y103.179 E15.51009
G1 X127.499 Y102.748 E15.53879
G1 X128.164 Y102.259 E15.56144
G1 X128.345 Y102.117 E15.56775
G1 X128.887 Y101.506 E15.59016
G1 X129.033 Y101.328 E15.59648
G1 X129.437 Y100.616 E15.61894
G1 X129.541 Y100.41 E15.62527
G1 X129.786 Y99.629 E15.64773
G1 X129.843 Y99.406 E15.65405
G1 X129.917 Y98.59 E15.67653
G1 X129.923 Y98.36 E15.68285
G1 X129.825 Y97.548 E15.70529
G1 X129.801 Y97.427 E15.70867
G1 X129.781 Y97.322 E15.71161
G1 X129.704 Y97.1 E15.71805
G1 X129.781 Y97.1
G1 X129.888 Y97.1 E15.72049
G1 X140.752 Y97.1 E16.01859
G1 X142.4 Y98.748 E16.08254
G1 X142.4 Y107.9 E16.33367
G1 X139.985 Y107.9 E16.39994
G0 X140.385 Y108.3
;TYPE:WALL-OUTER
G1 X140.385 Y108.375 E16.402
G1 X109.615 Y108.375 E17.24631
G1 X109.615 Y108.3 E17.24837
G1 X107.2 Y108.3 E17.31464
G1 X107.2 Y98.582 E17.5813
G1 X109.082 Y96.7 E17.65433
G1 X120.487 Y96.7 E17.96728
G1 X120.593 Y96.7 E17.97018
G1 X120.796 Y96.748 E17.97591
G1 X120.828 Y96.778 E17.97711
G1 X120.794 Y96.878 E17.97956
G1 X120.607 Y97.426 E17.99544
G1 X120.569 Y97.608 E18.00055
G1 X120.479 Y98.378 E18.02182
G1 X120.482 Y98.565 E18.02695
G1 X120.554 Y99.336 E18.0482
G1 X120.598 Y99.519 E18.05336
G1 X120.832 Y100.258 E18.07463
G1 X120.915 Y100.426 E18.07978
G1 X121.298 Y101.099 E18.10102
G1 X121.415 Y101.244 E18.10614
G1 X121.93 Y101.824 E18.12742
G1 X122.077 Y101.94 E18.13256
G1 X122.704 Y102.398 E18.15386
G1 X122.871 Y102.478 E18.15894
G1 X123.58 Y102.795 E18.18025
G1 X123.76 Y102.838 E18.18533
G1 X124.52 Y102.999 E18.20665
G1 X125.481 Y103 E18.23302
G1 X126.42 Y102.797 E18.25938
G1 X127.296 Y102.401 E18.28576
G1 X127.922 Y101.94 E18.30709
G1 X128.07 Y101.824 E18.31225
G1 X128.583 Y101.246 E18.33346
G1 X128.702 Y101.101 E18.3386
G1 X129.084 Y100.427 E18.35986
G1 X129.169 Y100.259 E18.36503
G1 X129.401 Y99.52 E18.38628
G1 X129.447 Y99.338 E18.39143
G1 X129.517 Y98.567 E18.41268
G1 X129.522 Y98.379 E18.41784
G1 X129.43 Y97.61 E18.43909
G1 X129.394 Y97.426 E18.44423
G1 X129.205 Y96.879 E18.46011
G1 X129.171 Y96.779 E18.46301
G1 X129.204 Y96.748 E18.46425
G1 X129.407 Y96.7 E18.46998
G1 X129.513 Y96.7 E18.47244
G1 X140.918 Y96.7 E18.78539
G1 X142.8 Y98.582 E18.85842
G1 X142.8 Y108.3 E19.12508
G1 X140.385 Y108.3 E19.19134
G0 X140.385 Y108.375
G0 X140.26 Y108.375
G0 X140.26 Y107.8
G0 X139.595 Y107.585
;TYPE:SKIN
G1 X110.405 Y107.585 E19.99231
G1 X110.405 Y107.51 E19.99436
G1 X107.99 Y107.51 E20.06063
G1 X107.99 Y98.908 E20.29667
G1 X109.408 Y97.49 E20.35169
G1 X119.787 Y97.49 E20.63649
G1 X119.689 Y98.338 E20.65991
G1 X119.692 Y98.608 E20.66732
G1 X119.772 Y99.466 E20.69097
G1 X119.836 Y99.731 E20.69845
G1 X120.097 Y100.554 E20.72214
G1 X120.217 Y100.797 E20.72957
G1 X120.643 Y101.545 E20.75319
G1 X120.812 Y101.755 E20.76059
G1 X121.385 Y102.401 E20.78429
G1 X121.599 Y102.569 E20.79175
G1 X122.297 Y103.079 E20.81547
G1 X122.539 Y103.195 E20.82284
G1 X123.325 Y103.546 E20.84646
G1 X123.586 Y103.608 E20.85382
G1 X124.437 Y103.789 E20.87769
G1 X125.565 Y103.79 E20.90864
G1 X126.669 Y103.551 E20.93964
G1 X127.698 Y103.087 E20.97061
G1 X128.4 Y102.569 E20.99455
G1 X128.614 Y102.402 E21.002
G1 X129.184 Y101.759 E21.02558
G1 X129.355 Y101.55 E21.03299
G1 X129.78 Y100.8 E21.05664
G1 X129.904 Y100.558 E21.0641
G1 X130.161 Y99.736 E21.08773
G1 X130.229 Y99.473 E21.09519
G1 X130.307 Y98.613 E21.11888
G1 X130.313 Y98.342 E21.12632
G1 X130.211 Y97.49 E21.14987
G1 X140.592 Y97.49 E21.43472
G1 X142.01 Y98.908 E21.48974
G1 X142.01 Y107.51 E21.72578
G1 X139.595 Y107.51 E21.79204
G1 X139.595 Y107.585 E21.7941
G0 X140.096 Y97.669
G1 X141.829 Y99.402 E21.86135
G0 X141.829 Y99.968
G1 X139.53 Y97.669 E21.95057
G0 X138.964 Y97.669
G1 X141.829 Y100.534 E22.06174
G0 X141.829 Y101.1
G1 X138.399 Y97.669 E22.19487
G0 X137.833 Y97.669
G1 X141.829 Y101.665 E22.34993
G0 X141.829 Y102.231
G1 X137.267 Y97.669 E22.52696
G0 X136.702 Y97.669
G1 X141.829 Y102.797 E22.72594
G0 X141.829 Y103.362
G1 X136.136 Y97.669 E22.94686
G0 X135.57 Y97.669
G1 X141.829 Y103.928 E23.18974
G0 X141.829 Y104.494
