;FLAVOR:Marlin
;TIME:8447
;Filament used: 5.61274m
;Layer height: 0.15
;MINX:100.09
;MINY:84.742
;MINZ:0.15
;MAXX:165.291
;MAXY:150.593
;MAXZ:41.7
;Generated with Cura_SteamEngine 4.7.1
M82 ;absolute extrusion mode
G21 ; set units to millimeters
G90 ; use absolute positioning
M82 ; absolute extrusion mode
M104 S230 ; set extruder temp
M140 S80 ; set bed temp
M190 S80 ; wait for bed temp
M109 S230 ; wait for extruder temp
G28 W ; home all without mesh bed level
G80 ; mesh bed leveling
G92 E0.0 ; reset extruder distance position
G1 Y-3.0 F1000.0 ; go outside print area
G1 X60.0 E9.0 F1000.0 ; intro line
G1 X100.0 E21.5 F1000.0 ; intro line
G92 E0.0 ; reset extruder distance position
G92 E0
G92 E0
;LAYER_COUNT:278
;LAYER:0
M107
G0 F1800 X130.911 Y110.155 Z0.15
;TYPE:SKIRT
G1 X130.599 Y110.629 E0.01557
G1 X130.363 Y111.164 E0.03162
G1 X130.212 Y111.763 E0.04857
G1 X130.168 Y112.35 E0.06472
G1 X130.223 Y112.938 E0.08092
G1 X130.374 Y113.503 E0.09697
G1 X130.621 Y114.045 E0.11332
G1 X130.962 Y114.545 E0.12992
G1 X131.378 Y114.973 E0.1463
G1 X131.866 Y115.33 E0.16289
G1 X132.408 Y115.597 E0.17947
G1 X132.952 Y115.761 E0.19506
G1 X133.561 Y115.837 E0.2119
G1 X134.157 Y115.807 E0.22828
G1 X134.733 Y115.681 E0.24445
G1 X135.291 Y115.453 E0.26099
G1 X135.806 Y115.131 E0.27766
G1 X136.234 Y114.753 E0.29333
G1 X136.615 Y114.275 E0.3101
G1 X136.904 Y113.752 E0.3265
G1 X137.101 Y113.186 E0.34294
G1 X137.199 Y112.58 E0.35979
G1 X137.195 Y112.001 E0.37568
G1 X137.088 Y111.403 E0.39234
G1 X136.871 Y110.809 E0.4097
G1 X136.567 Y110.288 E0.42625
G1 X136.182 Y109.829 E0.44269
G1 X135.733 Y109.45 E0.45881
G1 X135.012 Y109.038 E0.4816
G1 X134.331 Y108.638 E0.50327
G1 X133.686 Y108.165 E0.52522
G1 X133.544 Y108.287 E0.53035
G1 X132.896 Y108.738 E0.55202
G1 X132.369 Y109.039 E0.56867
G1 X131.791 Y109.353 E0.58672
G1 X131.331 Y109.703 E0.60258
G1 X130.911 Y110.155 E0.61951
G0 X130.608 Y109.893
G1 X130.244 Y110.443 E0.63761
G1 X129.985 Y111.033 E0.65529
G1 X129.819 Y111.686 E0.67378
G1 X129.768 Y112.357 E0.69224
G1 X129.83 Y113.009 E0.71021
G1 X129.997 Y113.637 E0.72804
G1 X130.277 Y114.251 E0.74656
G1 X130.657 Y114.805 E0.76499
G1 X131.118 Y115.278 E0.78312
G1 X131.649 Y115.666 E0.80116
G1 X132.25 Y115.965 E0.81958
G1 X132.877 Y116.154 E0.83755
G1 X133.548 Y116.237 E0.8561
G1 X134.209 Y116.204 E0.87426
G1 X134.862 Y116.059 E0.89262
G1 X135.477 Y115.808 E0.91085
G1 X136.027 Y115.466 E0.92862
G1 X136.531 Y115.02 E0.94708
G1 X136.958 Y114.482 E0.96593
G1 X137.278 Y113.895 E0.98428
G1 X137.487 Y113.292 E1.00179
G1 X137.599 Y112.613 E1.02067
G1 X137.592 Y111.947 E1.03895
G1 X137.475 Y111.306 E1.05683
G1 X137.305 Y110.801 E1.07145
G1 X137.019 Y110.245 E1.0886
G1 X136.62 Y109.712 E1.10687
G1 X136.151 Y109.264 E1.12467
G1 X135.589 Y108.887 E1.14324
G1 X135.197 Y108.683 E1.15537
G1 X134.534 Y108.293 E1.17647
G1 X133.915 Y107.836 E1.19759
G1 X133.696 Y107.636 E1.20572
G1 X133.155 Y108.079 E1.22491
G1 X132.184 Y108.684 E1.2563
G1 X131.591 Y109.006 E1.27482
G1 X131.061 Y109.408 E1.29307
G1 X130.608 Y109.893 E1.31128
G0 X130.294 Y109.646
G1 X129.896 Y110.246 E1.33104
G1 X129.607 Y110.901 E1.35068
G1 X129.469 Y111.389 E1.3646
G1 X129.372 Y112.108 E1.38451
G1 X129.401 Y112.852 E1.40494
G1 X129.554 Y113.571 E1.42511
G1 X129.817 Y114.237 E1.44476
G1 X130.067 Y114.675 E1.45859
G1 X130.519 Y115.256 E1.47879
G1 X131.049 Y115.738 E1.49845
G1 X131.66 Y116.133 E1.51841
G1 X132.342 Y116.424 E1.53876
G1 X133.042 Y116.591 E1.55851
G1 X133.779 Y116.638 E1.57877
G1 X134.516 Y116.56 E1.59911
G1 X135.22 Y116.359 E1.6192
G1 X135.867 Y116.05 E1.63887
G1 X136.284 Y115.773 E1.65261
G1 X136.828 Y115.288 E1.67261
G1 X137.29 Y114.705 E1.69302
G1 X137.644 Y114.058 E1.71325
G1 X137.876 Y113.385 E1.73279
G1 X137.998 Y112.64 E1.7535
G1 X137.992 Y111.929 E1.77301
G1 X137.865 Y111.214 E1.79294
G1 X137.67 Y110.638 E1.80963
G1 X137.368 Y110.049 E1.82779
G1 X136.917 Y109.445 E1.84847
G1 X136.396 Y108.947 E1.86825
G1 X135.786 Y108.539 E1.88839
G1 X135.381 Y108.328 E1.90092
G1 X134.737 Y107.948 E1.92143
G1 X134.138 Y107.501 E1.94194
G1 X133.689 Y107.084 E1.95876
G1 X133.358 Y107.405 E1.97141
G1 X132.768 Y107.864 E1.99192
G1 X132 Y108.329 E2.01656
G1 X131.378 Y108.667 E2.03598
G1 X130.8 Y109.104 E2.05586
G1 X130.294 Y109.646 E2.07621
G0 X129.974 Y109.405
G1 X129.671 Y109.839 E2.09073
G1 X129.422 Y110.296 E2.10501
G1 X129.227 Y110.774 E2.11918
G1 X129.077 Y111.306 E2.13435
G1 X128.992 Y111.838 E2.14913
G1 X128.968 Y112.352 E2.16325
G1 X129.001 Y112.877 E2.17768
G1 X129.101 Y113.433 E2.19318
G1 X129.252 Y113.932 E2.20749
G1 X129.458 Y114.414 E2.22187
G1 X129.725 Y114.885 E2.23673
G1 X130.035 Y115.308 E2.25112
G1 X130.39 Y115.696 E2.26555
G1 X130.803 Y116.054 E2.28055
G1 X131.244 Y116.356 E2.29521
G1 X131.722 Y116.61 E2.31007
G1 X132.213 Y116.803 E2.32454
G1 X132.705 Y116.936 E2.33853
G1 X133.25 Y117.018 E2.35365
G1 X133.779 Y117.039 E2.36818
G1 X134.33 Y116.995 E2.38335
G1 X134.839 Y116.897 E2.39757
G1 X135.36 Y116.734 E2.41255
G1 X135.833 Y116.524 E2.42675
G1 X136.296 Y116.255 E2.44144
G1 X136.724 Y115.934 E2.45612
G1 X137.11 Y115.572 E2.47064
G1 X137.458 Y115.159 E2.48546
G1 X137.743 Y114.737 E2.49943
G1 X138.005 Y114.229 E2.51512
G1 X138.191 Y113.737 E2.52955
G1 X138.316 Y113.25 E2.54335
G1 X138.395 Y112.693 E2.55878
G1 X138.407 Y112.173 E2.57306
G1 X138.364 Y111.671 E2.58688
G1 X138.246 Y111.088 E2.6032
G1 X138.045 Y110.498 E2.62031
G1 X137.697 Y109.82 E2.64122
G1 X137.402 Y109.399 E2.65532
G1 X137.049 Y108.998 E2.66998
G1 X136.639 Y108.629 E2.68512
G1 X136.217 Y108.33 E2.69931
G1 X135.566 Y107.974 E2.71967
G1 X134.941 Y107.603 E2.73961
G1 X134.361 Y107.166 E2.75954
G1 X133.832 Y106.668 E2.77948
G1 X133.69 Y106.501 E2.78549
G1 X133.501 Y106.719 E2.79341
G1 X132.967 Y107.212 E2.81335
G1 X132.382 Y107.642 E2.83327
G1 X131.815 Y107.975 E2.85132
G1 X131.158 Y108.333 E2.87185
G1 X130.736 Y108.635 E2.88609
G1 X130.343 Y108.987 E2.90056
G1 X129.974 Y109.405 E2.91586
G0 X129.505 Y109.364
G1 X129.19 Y109.868 E2.93217
G1 X128.943 Y110.392 E2.94807
G1 X128.756 Y110.945 E2.96408
G1 X128.631 Y111.513 E2.98004
G1 X128.573 Y112.068 E2.99536
G1 X128.579 Y112.661 E3.01163
G1 X128.645 Y113.207 E3.02672
G1 X128.78 Y113.777 E3.04279
G1 X128.982 Y114.336 E3.0591
G1 X129.229 Y114.836 E3.0744
G1 X129.551 Y115.335 E3.0907
G1 X129.923 Y115.79 E3.10683
G1 X130.332 Y116.185 E3.12243
G1 X130.787 Y116.537 E3.13821
G1 X131.293 Y116.845 E3.15447
G1 X131.821 Y117.087 E3.17041
G1 X132.368 Y117.266 E3.1862
G1 X132.928 Y117.382 E3.20189
G1 X133.494 Y117.436 E3.21749
G1 X134.069 Y117.425 E3.23327
G1 X134.664 Y117.347 E3.24974
G1 X135.226 Y117.204 E3.26565
G1 X135.769 Y116.998 E3.28159
G1 X136.279 Y116.736 E3.29732
G1 X136.757 Y116.419 E3.31306
G1 X137.208 Y116.04 E3.32922
G1 X137.59 Y115.635 E3.3445
G1 X137.96 Y115.144 E3.36137
G1 X138.24 Y114.666 E3.37657
G1 X138.47 Y114.152 E3.39202
G1 X138.651 Y113.584 E3.40838
G1 X138.758 Y113.037 E3.42367
G1 X138.808 Y112.472 E3.43924
G1 X138.789 Y111.858 E3.45609
G1 X138.706 Y111.293 E3.47176
G1 X138.578 Y110.799 E3.48577
G1 X138.317 Y110.123 E3.50565
G1 X138.041 Y109.616 E3.52149
G1 X137.709 Y109.143 E3.53735
G1 X137.327 Y108.71 E3.55319
G1 X136.9 Y108.326 E3.56895
G1 X136.421 Y107.985 E3.58508
G1 X135.751 Y107.619 E3.60603
G1 X135.146 Y107.259 E3.62535
G1 X134.586 Y106.832 E3.64467
G1 X134.078 Y106.345 E3.66398
G1 X133.689 Y105.877 E3.68068
G1 X133.581 Y106.027 E3.68575
G1 X133.107 Y106.548 E3.70508
G1 X132.577 Y107.012 E3.72441
G1 X131.998 Y107.412 E3.74372
G1 X131.191 Y107.849 E3.7689
G1 X130.713 Y108.15 E3.7844
G1 X130.26 Y108.513 E3.80033
G1 X129.857 Y108.922 E3.81609
G1 X129.505 Y109.364 E3.83159
G0 X129.348 Y108.906
G1 X128.99 Y109.419 E3.84875
G1 X128.698 Y109.954 E3.86548
G1 X128.467 Y110.527 E3.88243
G1 X128.3 Y111.116 E3.89923
G1 X128.195 Y111.761 E3.91716
G1 X128.168 Y112.367 E3.93381
G1 X128.207 Y112.981 E3.95069
G1 X128.323 Y113.621 E3.96854
G1 X128.497 Y114.195 E3.98499
G1 X128.743 Y114.774 E4.00226
G1 X129.053 Y115.318 E4.01944
G1 X129.421 Y115.822 E4.03656
G1 X129.832 Y116.27 E4.05324
G1 X130.325 Y116.695 E4.0711
G1 X130.814 Y117.032 E4.0874
G1 X131.374 Y117.331 E4.10482
G1 X131.956 Y117.561 E4.12199
G1 X132.551 Y117.721 E4.1389
G1 X133.194 Y117.817 E4.15674
G1 X133.795 Y117.839 E4.17324
G1 X134.43 Y117.789 E4.19072
G1 X135.037 Y117.673 E4.20767
G1 X135.639 Y117.484 E4.22499
G1 X136.197 Y117.237 E4.24173
G1 X136.736 Y116.923 E4.25885
G1 X137.237 Y116.548 E4.27602
G1 X137.697 Y116.117 E4.29332
G1 X138.089 Y115.652 E4.31001
G1 X138.441 Y115.129 E4.3273
G1 X138.736 Y114.555 E4.34501
G1 X138.952 Y113.985 E4.36174
G1 X139.1 Y113.416 E4.37787
G1 X139.193 Y112.756 E4.39616
G1 X139.207 Y112.157 E4.4126
G1 X139.157 Y111.554 E4.4292
G1 X139.026 Y110.908 E4.44729
G1 X138.79 Y110.204 E4.46767
G1 X138.534 Y109.668 E4.48396
G1 X138.21 Y109.145 E4.50085
G1 X137.814 Y108.647 E4.5183
G1 X137.379 Y108.209 E4.53524
G1 X136.91 Y107.832 E4.55175
G1 X136.371 Y107.491 E4.56926
G1 X135.936 Y107.264 E4.58272
G1 X135.351 Y106.915 E4.60141
G1 X134.812 Y106.499 E4.62009
G1 X134.325 Y106.023 E4.63878
G1 X133.897 Y105.494 E4.65745
G1 X133.692 Y105.168 E4.66802
G1 X133.594 Y105.335 E4.67333
G1 X133.184 Y105.879 E4.69202
G1 X132.713 Y106.37 E4.71069
G1 X132.188 Y106.804 E4.72938
G1 X131.445 Y107.265 E4.75338
G1 X130.729 Y107.657 E4.77578
G1 X130.232 Y108.013 E4.79255
G1 X129.775 Y108.423 E4.8094
G1 X129.348 Y108.906 E4.82709
G0 X129.035 Y108.657
G1 X128.652 Y109.205 E4.84543
G1 X128.337 Y109.783 E4.8635
G1 X128.089 Y110.395 E4.88161
G1 X127.909 Y111.028 E4.89967
G1 X127.797 Y111.712 E4.91869
G1 X127.768 Y112.356 E4.93638
G1 X127.812 Y113.043 E4.95527
G1 X127.934 Y113.715 E4.97401
G1 X128.117 Y114.323 E4.99143
G1 X128.388 Y114.957 E5.01035
G1 X128.724 Y115.546 E5.02896
G1 X129.119 Y116.084 E5.04727
G1 X129.549 Y116.553 E5.06473
G1 X130.071 Y117.004 E5.08366
G1 X130.621 Y117.383 E5.10199
G1 X131.21 Y117.696 E5.12029
G1 X131.842 Y117.945 E5.13893
G1 X132.458 Y118.11 E5.15643
G1 X133.141 Y118.214 E5.17539
G1 X133.812 Y118.239 E5.19381
G1 X134.482 Y118.186 E5.21225
G1 X135.144 Y118.058 E5.23076
G1 X135.779 Y117.859 E5.24902
G1 X136.383 Y117.592 E5.26714
G1 X136.964 Y117.252 E5.28561
G1 X137.496 Y116.853 E5.30385
G1 X137.987 Y116.393 E5.32232
G1 X138.412 Y115.889 E5.34041
G1 X138.784 Y115.336 E5.35869
G1 X139.098 Y114.727 E5.3775
G1 X139.332 Y114.111 E5.39558
G1 X139.495 Y113.483 E5.41338
G1 X139.592 Y112.787 E5.43266
G1 X139.607 Y112.133 E5.45061
G1 X139.552 Y111.496 E5.46816
G1 X139.41 Y110.797 E5.48773
G1 X139.163 Y110.058 E5.50911
G1 X138.882 Y109.471 E5.52697
G1 X138.534 Y108.911 E5.54506
G1 X138.115 Y108.383 E5.56355
G1 X137.642 Y107.907 E5.58197
G1 X137.14 Y107.504 E5.59963
G1 X136.56 Y107.137 E5.61847
G1 X136.121 Y106.909 E5.63204
G1 X135.557 Y106.571 E5.65008
G1 X135.04 Y106.167 E5.66809
G1 X134.575 Y105.703 E5.68611
G1 X134.169 Y105.185 E5.70417
G1 X133.83 Y104.623 E5.72218
G1 X133.691 Y104.312 E5.73153
G1 X133.538 Y104.648 E5.74166
G1 X133.196 Y105.209 E5.75969
G1 X132.788 Y105.724 E5.77771
G1 X132.321 Y106.186 E5.79574
G1 X131.801 Y106.587 E5.81376
G1 X131.26 Y106.91 E5.83105
G1 X130.521 Y107.315 E5.85417
G1 X129.975 Y107.706 E5.8726
G1 X129.48 Y108.152 E5.89088
G1 X129.035 Y108.657 E5.90935
G0 X128.522 Y108.675
G1 X128.144 Y109.279 E5.9289
G1 X127.835 Y109.928 E5.94863
G1 X127.598 Y110.625 E5.96883
G1 X127.448 Y111.309 E5.98804
G1 X127.373 Y112.025 E6.0078
G1 X127.381 Y112.734 E6.02725
G1 X127.468 Y113.442 E6.04682
G1 X127.633 Y114.133 E6.06632
G1 X127.881 Y114.814 E6.08621
G1 X128.194 Y115.444 E6.10551
G1 X128.581 Y116.043 E6.12508
G1 X129.031 Y116.593 E6.14458
G1 X129.531 Y117.08 E6.16373
G1 X130.107 Y117.527 E6.18373
G1 X130.731 Y117.905 E6.20375
G1 X131.377 Y118.202 E6.22326
G1 X132.059 Y118.426 E6.24296
G1 X132.758 Y118.571 E6.26255
G1 X133.457 Y118.636 E6.28181
G1 X134.183 Y118.62 E6.30174
G1 X134.881 Y118.527 E6.32106
G1 X135.575 Y118.352 E6.3407
G1 X136.245 Y118.1 E6.36034
G1 X136.874 Y117.779 E6.37972
G1 X137.47 Y117.385 E6.39932
G1 X138.028 Y116.917 E6.41931
G1 X138.495 Y116.425 E6.43792
G1 X138.942 Y115.833 E6.45827
G1 X139.302 Y115.225 E6.47766
G1 X139.59 Y114.585 E6.49692
G1 X139.816 Y113.876 E6.51734
G1 X139.949 Y113.188 E6.53657
G1 X140.008 Y112.498 E6.55557
G1 X139.985 Y111.751 E6.57608
G1 X139.881 Y111.046 E6.59563
G1 X139.715 Y110.415 E6.61354
G1 X139.532 Y109.904 E6.62843
G1 X139.242 Y109.294 E6.64696
G1 X138.862 Y108.683 E6.66671
G1 X138.412 Y108.115 E6.68659
G1 X137.914 Y107.613 E6.70599
G1 X137.373 Y107.179 E6.72502
G1 X136.769 Y106.797 E6.74463
G1 X136.305 Y106.555 E6.75899
G1 X135.764 Y106.228 E6.77634
G1 X135.269 Y105.835 E6.79368
G1 X134.827 Y105.383 E6.81103
G1 X134.445 Y104.879 E6.82838
G1 X134.13 Y104.331 E6.84573
G1 X133.887 Y103.748 E6.86306
G1 X133.72 Y103.138 E6.88041
G1 X133.691 Y102.935 E6.88604
G1 X133.607 Y103.373 E6.89828
G1 X133.41 Y103.973 E6.91561
G1 X133.139 Y104.545 E6.93297
G1 X132.799 Y105.077 E6.9503
G1 X132.393 Y105.562 E6.96765
G1 X131.93 Y105.992 E6.98499
G1 X131.416 Y106.361 E7.00235
G1 X131.076 Y106.556 E7.01311
G1 X130.602 Y106.803 E7.02778
G1 X130.016 Y107.173 E7.04679
G1 X129.46 Y107.618 E7.06633
G1 X128.968 Y108.116 E7.08554
G1 X128.522 Y108.675 E7.10516
G0 X128.189 Y108.453
G1 X127.786 Y109.099 E7.12606
G1 X127.467 Y109.772 E7.14649
G1 X127.217 Y110.505 E7.16774
G1 X127.055 Y111.235 E7.18826
G1 X126.974 Y112.004 E7.20948
G1 X126.981 Y112.769 E7.23047
G1 X127.071 Y113.496 E7.25057
G1 X127.252 Y114.253 E7.27193
G1 X127.507 Y114.958 E7.2925
G1 X127.852 Y115.653 E7.31379
G1 X128.263 Y116.286 E7.3345
G1 X128.742 Y116.87 E7.35523
G1 X129.281 Y117.393 E7.37584
G1 X129.889 Y117.862 E7.39691
G1 X130.534 Y118.254 E7.41762
G1 X131.22 Y118.57 E7.43834
G1 X131.954 Y118.812 E7.45955
G1 X132.691 Y118.966 E7.48021
G1 X133.445 Y119.036 E7.50099
G1 X134.19 Y119.021 E7.52143
G1 X134.95 Y118.921 E7.54247
G1 X135.693 Y118.735 E7.56348
G1 X136.398 Y118.47 E7.58415
G1 X137.077 Y118.124 E7.60506
G1 X137.712 Y117.703 E7.62597
G1 X138.292 Y117.217 E7.64673
G1 X138.796 Y116.688 E7.66678
G1 X139.277 Y116.053 E7.68864
G1 X139.662 Y115.4 E7.70944
G1 X139.962 Y114.733 E7.72951
G1 X140.202 Y113.982 E7.75114
G1 X140.346 Y113.244 E7.77177
G1 X140.408 Y112.519 E7.79174
G1 X140.383 Y111.715 E7.81381
G1 X140.277 Y110.985 E7.83405
G1 X140.095 Y110.288 E7.85382
G1 X139.904 Y109.753 E7.86941
G1 X139.59 Y109.097 E7.88936
G1 X139.193 Y108.457 E7.91003
G1 X138.72 Y107.859 E7.93095
G1 X138.196 Y107.329 E7.9514
G1 X137.591 Y106.842 E7.97271
G1 X136.958 Y106.444 E7.99323
G1 X136.49 Y106.2 E8.00771
G1 X135.972 Y105.885 E8.02435
G1 X135.5 Y105.505 E8.04097
G1 X135.082 Y105.065 E8.05763
G1 X134.725 Y104.575 E8.07426
G1 X134.436 Y104.042 E8.0909
G1 X134.219 Y103.476 E8.10753
G1 X134.079 Y102.886 E8.12417
G1 X134.015 Y102.12 E8.14526
G1 X134.015 Y92.543 E8.40805
G1 X134.055 Y91.938 E8.42469
G1 X134.174 Y91.344 E8.44131
G1 X134.37 Y90.77 E8.45796
G1 X134.641 Y90.227 E8.47461
G1 X134.98 Y89.724 E8.49125
G1 X135.382 Y89.271 E8.50787
G1 X135.84 Y88.874 E8.5245
G1 X136.347 Y88.541 E8.54115
G1 X136.893 Y88.277 E8.55779
G1 X137.469 Y88.088 E8.57442
G1 X138.065 Y87.976 E8.59106
G1 X138.615 Y87.943 E8.60618
G1 X153.324 Y87.943 E9.00979
G1 X153.929 Y87.983 E9.02643
G1 X154.523 Y88.102 E9.04305
G1 X155.097 Y88.298 E9.0597
G1 X155.64 Y88.569 E9.07635
G1 X156.143 Y88.908 E9.09299
G1 X156.576 Y89.29 E9.10884
G1 X160.742 Y93.455 E9.27048
G1 X161.142 Y93.911 E9.28712
G1 X161.478 Y94.415 E9.30375
G1 X161.745 Y94.96 E9.3204
G1 X161.938 Y95.535 E9.33704
G1 X162.054 Y96.13 E9.35367
G1 X162.09 Y96.708 E9.36957
G1 X162.091 Y137.922 E10.50046
G1 X162.051 Y138.527 E10.5171
G1 X161.914 Y139.187 E10.5356
G1 X160.921 Y142.659 E10.63469
G1 X160.716 Y143.23 E10.65133
G1 X160.438 Y143.768 E10.66795
G1 X160.091 Y144.266 E10.6846
G1 X159.682 Y144.714 E10.70125
G1 X159.218 Y145.104 E10.71788
G1 X158.707 Y145.429 E10.7345
G1 X158.157 Y145.684 E10.75113
G1 X157.578 Y145.865 E10.76778
G1 X156.981 Y145.969 E10.78441
G1 X156.498 Y145.994 E10.79768
G1 X149.486 Y145.994 E10.99009
G1 X149.423 Y146.065 E10.99269
G1 X148.965 Y146.462 E11.00932
G1 X148.458 Y146.795 E11.02597
