;FLAVOR:Marlin
;TIME:1474
;Filament used: 0.885774m
;Layer height: 0.15
;MINX:69.441
;MINY:92.195
;MINZ:0.15
;MAXX:115.004
;MAXY:129.789
;MAXZ:6.9
;Generated with Cura_SteamEngine 4.7.1
M82 ;absolute extrusion mode
G21 ; set units to millimeters
G90 ; use absolute positioning
M82 ; absolute extrusion mode
M104 S230 ; set extruder temp
M140 S80 ; set bed temp
M190 S80 ; wait for bed temp
M109 S230 ; wait for extruder temp
G28 W ; home all without mesh bed level
G80 ; mesh bed leveling
G92 E0.0 ; reset extruder distance position
G1 Y-3.0 F1000.0 ; go outside print area
G1 X60.0 E9.0 F1000.0 ; intro line
G1 X100.0 E21.5 F1000.0 ; intro line
G92 E0.0 ; reset extruder distance position
G92 E0
G92 E0
;LAYER_COUNT:46
;LAYER:0
M107
G0 F1800 X73.222 Y95.25 Z0.15
;TYPE:SKIRT
G1 X73.701 Y94.951 E0.01549
G1 X74.218 Y94.722 E0.03101
G1 X74.905 Y94.531 E0.05058
G1 X77.168 Y94.024 E0.11421
G1 X79.792 Y93.359 E0.18849
G1 X82.421 Y92.613 E0.26348
G1 X82.606 Y92.557 E0.26878
G1 X83.315 Y92.351 E0.28904
G1 X83.607 Y92.278 E0.2973
G1 X84.167 Y92.199 E0.31282
G1 X84.666 Y92.195 E0.32651
G1 X85.594 Y92.247 E0.35201
G1 X86.627 Y92.32 E0.38043
G1 X89.295 Y92.432 E0.4537
G1 X92.038 Y92.47 E0.52898
G1 X94.781 Y92.43 E0.60425
G1 X97.438 Y92.317 E0.67722
G1 X98.109 Y92.268 E0.69568
G1 X99.361 Y92.196 E0.7301
G1 X99.927 Y92.203 E0.74563
G1 X100.701 Y92.346 E0.76723
G1 X101.793 Y92.661 E0.79841
G1 X102.569 Y92.896 E0.82066
G1 X105.167 Y93.604 E0.89455
G1 X108.828 Y94.471 E0.99778
G1 X109.297 Y94.571 E1.01094
G1 X109.839 Y94.729 E1.02643
G1 X110.355 Y94.962 E1.04197
G1 X110.832 Y95.265 E1.05747
G1 X111.31 Y95.676 E1.07477
G1 X111.626 Y95.984 E1.08688
G1 X112.98 Y97.337 E1.1394
G1 X113.451 Y97.822 E1.15795
G1 X113.815 Y98.255 E1.17348
G1 X114.114 Y98.734 E1.18897
G1 X114.343 Y99.251 E1.20449
G1 X114.497 Y99.795 E1.22
G1 X114.579 Y100.476 E1.23882
G1 X114.591 Y101.129 E1.25674
G1 X114.592 Y105.154 E1.36719
G1 X114.633 Y107.955 E1.44405
G1 X114.746 Y110.621 E1.51727
G1 X114.943 Y113.388 E1.59339
G1 X114.992 Y114.042 E1.61139
G1 X115.004 Y114.494 E1.62379
G1 X115.004 Y120.728 E1.79485
G1 X114.994 Y121.43 E1.81412
G1 X114.946 Y121.993 E1.82962
G1 X114.819 Y122.544 E1.84514
G1 X114.615 Y123.072 E1.86067
G1 X114.34 Y123.565 E1.87616
G1 X113.927 Y124.093 E1.89455
G1 X113.531 Y124.507 E1.91027
G1 X112.147 Y125.892 E1.964
G1 X111.656 Y126.369 E1.98278
G1 X111.224 Y126.733 E1.99828
G1 X110.745 Y127.033 E2.01379
G1 X110.228 Y127.262 E2.02931
G1 X109.54 Y127.453 E2.0489
G1 X107.277 Y127.96 E2.11253
G1 X104.653 Y128.625 E2.18681
G1 X102.024 Y129.371 E2.2618
G1 X101.842 Y129.426 E2.26702
G1 X101.125 Y129.635 E2.28751
G1 X100.573 Y129.755 E2.30301
G1 X99.786 Y129.789 E2.32462
G1 X98.851 Y129.737 E2.35032
G1 X97.818 Y129.664 E2.37874
G1 X95.15 Y129.552 E2.45201
G1 X92.407 Y129.514 E2.52728
G1 X89.664 Y129.554 E2.60256
G1 X87.007 Y129.667 E2.67553
G1 X86.336 Y129.716 E2.69399
G1 X85.083 Y129.788 E2.72843
G1 X84.517 Y129.781 E2.74396
G1 X83.742 Y129.638 E2.76559
G1 X82.652 Y129.323 E2.79672
G1 X81.876 Y129.088 E2.81897
G1 X79.278 Y128.38 E2.89286
G1 X75.607 Y127.51 E2.99638
G1 X75.133 Y127.408 E3.00968
G1 X74.591 Y127.248 E3.02519
G1 X74.076 Y127.013 E3.04072
G1 X73.6 Y126.709 E3.05622
G1 X73.137 Y126.31 E3.07299
G1 X72.808 Y125.989 E3.0856
G1 X71.465 Y124.647 E3.1377
G1 X70.994 Y124.162 E3.15625
G1 X70.63 Y123.729 E3.17177
G1 X70.331 Y123.25 E3.18727
G1 X70.102 Y122.733 E3.20278
G1 X69.948 Y122.189 E3.2183
G1 X69.866 Y121.508 E3.23712
G1 X69.854 Y120.855 E3.25504
G1 X69.853 Y116.83 E3.36548
G1 X69.812 Y114.029 E3.44235
G1 X69.699 Y111.362 E3.5156
G1 X69.498 Y108.541 E3.5932
G1 X69.452 Y107.921 E3.61026
G1 X69.441 Y107.489 E3.62212
G1 X69.441 Y101.256 E3.79315
G1 X69.451 Y100.554 E3.81241
G1 X69.499 Y99.991 E3.82792
G1 X69.626 Y99.44 E3.84343
G1 X69.83 Y98.912 E3.85896
G1 X70.105 Y98.419 E3.87445
G1 X70.518 Y97.891 E3.89285
G1 X70.914 Y97.477 E3.90857
G1 X72.306 Y96.083 E3.96262
G1 X72.789 Y95.614 E3.9811
G1 X73.222 Y95.25 E3.99662
G0 X73.48 Y95.557
G1 X73.938 Y95.278 E4.01134
G1 X74.432 Y95.071 E4.02603
G1 X74.999 Y94.92 E4.04213
G1 X77.24 Y94.418 E4.10515
G1 X79.927 Y93.737 E4.18121
G1 X82.522 Y93.001 E4.25522
G1 X82.718 Y92.941 E4.26085
G1 X83.427 Y92.735 E4.28111
G1 X83.691 Y92.669 E4.28858
G1 X84.222 Y92.596 E4.30328
G1 X84.644 Y92.595 E4.31486
G1 X85.566 Y92.646 E4.3402
G1 X86.583 Y92.718 E4.36818
G1 X89.307 Y92.833 E4.44299
G1 X92.039 Y92.87 E4.51796
G1 X94.769 Y92.831 E4.59288
G1 X97.484 Y92.714 E4.66745
G1 X98.19 Y92.664 E4.68687
G1 X99.384 Y92.595 E4.71968
G1 X99.921 Y92.604 E4.73442
G1 X100.59 Y92.73 E4.7531
G1 X101.678 Y93.044 E4.78417
G1 X102.463 Y93.282 E4.80668
G1 X105.06 Y93.99 E4.88054
G1 X108.758 Y94.866 E4.98482
G1 X109.212 Y94.962 E4.99756
G1 X109.727 Y95.114 E5.01229
G1 X110.213 Y95.34 E5.027
G1 X110.66 Y95.637 E5.04172
G1 X111.036 Y95.968 E5.05547
G1 X111.344 Y96.267 E5.06725
G1 X112.693 Y97.616 E5.1196
G1 X113.164 Y98.101 E5.13815
G1 X113.508 Y98.512 E5.15285
G1 X113.786 Y98.97 E5.16756
G1 X113.994 Y99.465 E5.18229
G1 X114.126 Y99.985 E5.19701
G1 X114.179 Y100.489 E5.21092
G1 X114.191 Y101.134 E5.22862
G1 X114.192 Y105.16 E5.33909
G1 X114.232 Y107.942 E5.41543
G1 X114.348 Y110.667 E5.49027
G1 X114.547 Y113.459 E5.56708
G1 X114.592 Y114.054 E5.58345
G1 X114.604 Y114.494 E5.59553
G1 X114.604 Y120.722 E5.76643
G1 X114.594 Y121.424 E5.78569
G1 X114.546 Y121.958 E5.8004
G1 X114.42 Y122.48 E5.81514
G1 X114.217 Y122.976 E5.82984
G1 X113.943 Y123.437 E5.84456
G1 X113.492 Y123.973 E5.86378
G1 X113.219 Y124.255 E5.87455
G1 X111.869 Y125.605 E5.92694
G1 X111.378 Y126.082 E5.94572
G1 X110.966 Y126.426 E5.96045
G1 X110.508 Y126.705 E5.97516
G1 X110.014 Y126.913 E5.98987
G1 X109.446 Y127.064 E6.006
G1 X107.205 Y127.566 E6.06901
G1 X104.518 Y128.247 E6.14508
G1 X101.923 Y128.983 E6.21909
G1 X101.73 Y129.042 E6.22463
G1 X101.013 Y129.251 E6.24512
G1 X100.489 Y129.362 E6.25982
G1 X99.808 Y129.39 E6.27852
G1 X98.879 Y129.338 E6.30405
G1 X97.862 Y129.266 E6.33203
G1 X95.138 Y129.151 E6.40684
G1 X92.406 Y129.114 E6.48181
G1 X89.676 Y129.153 E6.55673
G1 X86.961 Y129.27 E6.6313
G1 X86.255 Y129.32 E6.65072
G1 X85.06 Y129.389 E6.68356
G1 X84.523 Y129.38 E6.6983
G1 X83.853 Y129.254 E6.71701
G1 X82.767 Y128.94 E6.74803
G1 X81.982 Y128.702 E6.77054
G1 X79.385 Y127.994 E6.8444
G1 X75.674 Y127.115 E6.94904
G1 X75.219 Y127.017 E6.96181
G1 X74.705 Y126.864 E6.97653
G1 X74.219 Y126.635 E6.99127
G1 X73.773 Y126.338 E7.00597
G1 X73.35 Y125.96 E7.02154
G1 X73.09 Y125.706 E7.03151
G1 X71.752 Y124.368 E7.08344
G1 X71.281 Y123.883 E7.10199
G1 X70.937 Y123.472 E7.11669
G1 X70.659 Y123.014 E7.1314
G1 X70.451 Y122.519 E7.14613
G1 X70.319 Y121.999 E7.16085
G1 X70.266 Y121.495 E7.17476
G1 X70.254 Y120.85 E7.19246
G1 X70.253 Y116.824 E7.30293
G1 X70.213 Y114.042 E7.37927
G1 X70.097 Y111.318 E7.45409
G1 X69.897 Y108.513 E7.53125
G1 X69.851 Y107.91 E7.54784
G1 X69.841 Y107.489 E7.5594
G1 X69.841 Y101.262 E7.73027
G1 X69.851 Y100.56 E7.74953
G1 X69.899 Y100.026 E7.76424
G1 X70.025 Y99.504 E7.77898
G1 X70.228 Y99.008 E7.79368
G1 X70.502 Y98.547 E7.8084
G1 X70.953 Y98.011 E7.82762
G1 X71.226 Y97.729 E7.83839
G1 X72.585 Y96.37 E7.89113
G1 X73.068 Y95.901 E7.9096
G1 X73.48 Y95.557 E7.92433
G0 X73.736 Y95.866
G1 X74.171 Y95.609 E7.93819
G1 X74.824 Y95.374 E7.95723
G1 X75.146 Y95.296 E7.96633
G1 X77.363 Y94.8 E8.02866
G1 X80.03 Y94.124 E8.10416
G1 X82.616 Y93.39 E8.17792
G1 X82.829 Y93.325 E8.18403
G1 X83.538 Y93.119 E8.20429
G1 X83.775 Y93.06 E8.21099
G1 X84.276 Y92.993 E8.22486
G1 X84.622 Y92.994 E8.23436
G1 X85.538 Y93.045 E8.25953
G1 X86.572 Y93.118 E8.28797
G1 X89.286 Y93.232 E8.36251
G1 X92.039 Y93.27 E8.43806
G1 X94.791 Y93.23 E8.51358
G1 X97.494 Y93.115 E8.58782
G1 X98.213 Y93.063 E8.6076
G1 X99.407 Y92.994 E8.64041
G1 X99.913 Y93.005 E8.6543
G1 X100.479 Y93.114 E8.67012
G1 X101.562 Y93.427 E8.70105
G1 X102.347 Y93.665 E8.72356
G1 X104.953 Y94.375 E8.79767
G1 X108.68 Y95.258 E8.90277
G1 X109.128 Y95.353 E8.91534
G1 X109.612 Y95.498 E8.9292
G1 X110.067 Y95.718 E8.94307
G1 X110.639 Y96.144 E8.96264
G1 X111.036 Y96.526 E8.97776
G1 X112.406 Y97.895 E9.0309
G1 X112.877 Y98.38 E9.04945
G1 X113.199 Y98.769 E9.06331
G1 X113.456 Y99.204 E9.07717
G1 X113.642 Y99.675 E9.09107
G1 X113.751 Y100.168 E9.10492
G1 X113.786 Y100.721 E9.12013
G1 X113.791 Y101.176 E9.13261
G1 X113.792 Y105.166 E9.2421
G1 X113.833 Y107.965 E9.31891
G1 X113.948 Y110.677 E9.39339
G1 X114.149 Y113.499 E9.47102
G1 X114.193 Y114.066 E9.48663
G1 X114.204 Y114.494 E9.49838
G1 X114.204 Y120.717 E9.66913
G1 X114.194 Y121.419 E9.6884
G1 X114.147 Y121.922 E9.70226
G1 X114.021 Y122.412 E9.71614
G1 X113.819 Y122.875 E9.73
G1 X113.548 Y123.302 E9.74388
G1 X113.199 Y123.701 E9.75843
G1 X112.936 Y123.972 E9.76879
G1 X111.59 Y125.318 E9.82102
G1 X111.099 Y125.795 E9.8398
G1 X110.709 Y126.118 E9.8537
G1 X110.274 Y126.375 E9.86756
G1 X109.621 Y126.61 E9.88661
G1 X109.299 Y126.688 E9.8957
G1 X107.082 Y127.184 E9.95803
G1 X104.415 Y127.86 E10.03353
G1 X101.829 Y128.594 E10.10729
G1 X101.619 Y128.658 E10.11332
G1 X100.902 Y128.867 E10.13381
G1 X100.406 Y128.97 E10.14771
G1 X99.83 Y128.99 E10.16352
G1 X98.907 Y128.939 E10.18889
G1 X97.873 Y128.866 E10.21733
G1 X95.159 Y128.752 E10.29187
G1 X92.406 Y128.714 E10.36742
G1 X89.654 Y128.754 E10.44294
G1 X86.951 Y128.869 E10.51718
G1 X86.231 Y128.921 E10.53698
G1 X85.036 Y128.99 E10.56983
G1 X84.531 Y128.979 E10.58369
G1 X83.964 Y128.869 E10.59954
G1 X82.883 Y128.557 E10.63041
G1 X82.098 Y128.319 E10.65292
G1 X79.492 Y127.609 E10.72703
G1 X75.759 Y126.724 E10.8323
G1 X75.304 Y126.627 E10.84507
G1 X74.821 Y126.48 E10.85892
G1 X74.366 Y126.258 E10.87282
G1 X73.805 Y125.839 E10.89203
G1 X73.397 Y125.446 E10.90757
G1 X72.039 Y124.089 E10.96025
G1 X71.568 Y123.604 E10.9788
G1 X71.246 Y123.215 E10.99266
G1 X70.989 Y122.78 E11.00652
G1 X70.803 Y122.309 E11.02042
G1 X70.694 Y121.816 E11.03427
G1 X70.659 Y121.263 E11.04948
G1 X70.654 Y120.808 E11.06196
G1 X70.653 Y116.818 E11.17145
G1 X70.612 Y114.019 E11.24826
G1 X70.497 Y111.308 E11.32271
G1 X70.299 Y108.527 E11.39922
G1 X70.251 Y107.898 E11.41653
G1 X70.241 Y107.489 E11.42775
G1 X70.241 Y101.267 E11.59848
G1 X70.251 Y100.565 E11.61775
G1 X70.298 Y100.062 E11.63161
G1 X70.424 Y99.572 E11.64549
G1 X70.626 Y99.109 E11.65935
G1 X70.897 Y98.682 E11.67323
G1 X71.246 Y98.283 E11.68778
G1 X71.509 Y98.012 E11.69814
G1 X72.864 Y96.657 E11.75072
G1 X73.347 Y96.188 E11.76919
G1 X73.736 Y95.866 E11.78305
;MESH:2x z_motor_mount_front.stl
G0 X74.858 Y98.002
G0 X75.746 Y98.89
G0 X85.04 Y99.071
;TYPE:WALL-INNER
G1 X85.04 Y97.635 E11.82245
G1 X85.04 Y97.595 E11.82355
G1 X85.04 Y97.462 E11.8272
G1 X85.041 Y97.355 E11.83014
G1 X85.193 Y97.462 E11.83233
G1 X85.392 Y97.595 E11.83721
G1 X85.427 Y97.614 E11.83825
G1 X86.426 Y98.161 E11.8695
G1 X86.639 Y98.269 E11.87605
G1 X87.729 Y98.717 E11.90839
G1 X87.953 Y98.799 E11.91494
G1 X89.087 Y99.123 E11.9473
G1 X89.318 Y99.179 E11.95382
G1 X90.483 Y99.375 E11.98624
G1 X90.719 Y99.403 E11.99276
G1 X91.895 Y99.468 E12.02507
G1 X92.134 Y99.469 E12.03163
G1 X93.309 Y99.402 E12.06393
G1 X93.546 Y99.376 E12.07047
G1 X94.709 Y99.178 E12.10284
G1 X94.941 Y99.125 E12.10937
G1 X96.078 Y98.798 E12.14183
G1 X96.301 Y98.717 E12.14834
G1 X97.391 Y98.268 E12.18069
G1 X97.603 Y98.162 E12.1872
G1 X98.604 Y97.613 E12.21852
G1 X98.638 Y97.595 E12.21958
G1 X98.836 Y97.463 E12.22611
G1 X98.991 Y97.354 E12.23131
G1 X98.991 Y97.463 E12.23134
G1 X98.991 Y97.594 E12.23255
G1 X98.991 Y97.633 E12.23357
G1 X98.992 Y99.071 E12.27302
G1 X108.209 Y99.072 E12.52594
G1 X109.148 Y100.011 E12.56237
G1 X109.359 Y100.222 E12.57056
G1 X109.863 Y100.726 E12.59012
G1 X109.991 Y100.854 E12.59509
G1 X109.991 Y100.994 E12.59893
G1 X109.991 Y101.642 E12.61671
G1 X109.991 Y102.314 E12.63515
G1 X109.895 Y101.642 E12.63749
G1 X109.595 Y100.994 E12.65006
G1 X109.124 Y100.457 E12.66748
G1 X108.871 Y100.299 E12.67498
G1 X108.519 Y100.078 E12.68638
G1 X107.831 Y99.887 E12.70597
G1 X107.119 Y99.899 E12.72551
G1 X106.438 Y100.113 E12.7451
G1 X105.848 Y100.513 E12.76466
G1 X105.395 Y101.065 E12.78425
G1 X105.118 Y101.721 E12.80379
G1 X105.04 Y102.43 E12.82337
G1 X105.166 Y103.13 E12.84288
G1 X105.486 Y103.766 E12.86242
G1 X105.975 Y104.285 E12.88198
G1 X106.591 Y104.643 E12.90153
G1 X107.282 Y104.809 E12.92103
G1 X107.992 Y104.772 E12.94054
G1 X108.663 Y104.537 E12.96005
G1 X109.238 Y104.119 E12.97956
G1 X109.598 Y103.647 E12.99585
G1 X109.658 Y103.569 E12.99855
G1 X109.895 Y103.05 E13.0142
G1 X109.991 Y102.38 E13.03278
G1 X109.991 Y103.05 E13.03494
G1 X109.991 Y103.568 E13.04312
G1 X109.991 Y103.667 E13.04562
G1 X109.992 Y107.023 E13.13771
G1 X109.992 Y107.223 E13.1432
G1 X109.792 Y107.223 E13.14675
G1 X74.041 Y107.222 E14.12775
G1 X74.041 Y103.709 E14.22414
G1 X74.041 Y103.13 E14.24003
G1 X74.041 Y102.436 E14.25907
G1 X74.166 Y103.13 E14.26229
G1 X74.426 Y103.647 E14.27285
G1 X74.486 Y103.766 E14.27651
G1 X74.975 Y104.285 E14.29608
G1 X75.591 Y104.643 E14.31563
G1 X76.282 Y104.809 E14.33513
G1 X76.992 Y104.772 E14.35464
G1 X77.663 Y104.537 E14.37415
G1 X78.238 Y104.119 E14.39365
G1 X78.658 Y103.569 E14.41264
G1 X78.895 Y103.05 E14.4283
G1 X78.996 Y102.347 E14.44778
G1 X78.895 Y101.642 E14.46733
G1 X78.595 Y100.994 E14.48692
G1 X78.124 Y100.457 E14.50652
G1 X77.519 Y100.078 E14.52611
G1 X76.831 Y99.887 E14.5457
G1 X76.119 Y99.899 E14.56524
G1 X75.438 Y100.113 E14.58483
G1 X75.157 Y100.304 E14.59415
G1 X74.848 Y100.513 E14.60439
G1 X74.395 Y101.065 E14.62398
G1 X74.118 Y101.721 E14.64352
G1 X74.041 Y102.421 E14.66285
G1 X74.041 Y101.721 E14.66467
G1 X74.041 Y101.065 E14.67419
G1 X74.041 Y100.854 E14.67998
G1 X74.112 Y100.783 E14.68274
G1 X74.615 Y100.28 E14.7005
G1 X74.878 Y100.017 E14.7098
G1 X75.823 Y99.072 E14.74647
G1 X85.04 Y99.071 E14.99938
G0 X93.695 Y102.371
G0 X94.138 Y103.05
G0 X94.258 Y103.926
G1 X94.37 Y103.26 E15.01791
G1 X94.197 Y102.68 E15.03452
G1 X93.789 Y102.234 E15.05111
G1 X93.23 Y102.008 E15.06765
G1 X92.627 Y102.048 E15.08423
G1 X92.102 Y102.345 E15.10078
G1 X92.054 Y102.416 E15.10314
G1 X92.011 Y102.477 E15.10518
G1 X91.987 Y102.451
G1 X91.789 Y102.234 E15.11082
G1 X91.23 Y102.008 E15.12736
G1 X90.627 Y102.048 E15.14394
G1 X90.102 Y102.345 E15.16049
G1 X89.759 Y102.841 E15.17704
G1 X89.663 Y103.436 E15.19358
G1 X89.835 Y104.014 E15.21013
G1 X90.242 Y104.46 E15.2267
G1 X90.802 Y104.686 E15.24327
G1 X91.405 Y104.646 E15.25985
G1 X91.91 Y104.359 E15.27579
G1 X91.99 Y104.259 E15.2793
G1 X92.022 Y104.219 E15.28071
G1 X92.04 Y104.239
G1 X92.242 Y104.46 E15.28651
G1 X92.802 Y104.686 E15.30308
G1 X93.405 Y104.646 E15.31966
G1 X93.91 Y104.359 E15.3356
G1 X94.258 Y103.926 E15.35084
G0 X93.881 Y103.757
;TYPE:WALL-OUTER
G1 X93.96 Y103.285 E15.36397
G1 X93.84 Y102.882 E15.37551
G1 X93.555 Y102.571 E15.38709
G1 X93.165 Y102.413 E15.39863
G1 X92.745 Y102.441 E15.41018
G1 X92.379 Y102.648 E15.42172
G1 X92.167 Y102.953 E15.43191
G1 X92.139 Y102.994 E15.43328
G1 X92.089 Y103.305 E15.44192
G1 X92.072 Y103.409 E15.44481
G1 X92.151 Y103.676 E15.45245
G1 X92.192 Y103.812 E15.45635
G1 X92.225 Y103.848 E15.45769
G1 X92.476 Y104.123 E15.4679
G1 X92.867 Y104.281 E15.47948
G1 X93.287 Y104.253 E15.49103
G1 X93.646 Y104.049 E15.50236
G1 X93.881 Y103.757 E15.51264
G0 X93.914 Y103.56
G0 X94.21 Y103.61
G0 X94.052 Y102.763
G0 X93.202 Y102.171
G0 X92.213 Y102.468
G0 X92.017 Y103.342
G0 X91.881 Y103.757
G1 X91.942 Y103.388 E15.51867
G1 X91.96 Y103.285 E15.51962
G1 X91.895 Y103.067 E15.52208
G1 X91.84 Y102.882 E15.52662
G1 X91.807 Y102.846 E15.52796
G1 X91.555 Y102.571 E15.5382
G1 X91.165 Y102.413 E15.54974
G1 X90.745 Y102.441 E15.56129
G1 X90.379 Y102.648 E15.57283
G1 X90.139 Y102.994 E15.58439
G1 X90.072 Y103.409 E15.59592
G1 X90.192 Y103.812 E15.60746
G1 X90.476 Y104.123 E15.61902
G1 X90.867 Y104.281 E15.63059
G1 X91.287 Y104.253 E15.64214
G1 X91.646 Y104.049 E15.65347
G1 X91.851 Y103.795 E15.66242
G1 X91.881 Y103.757 E15.66375
G0 X91.913 Y103.56
G0 X92.011 Y103.577
G0 X92.213 Y102.468
G0 X99.391 Y98.971
G0 X99.392 Y98.671
G1 X108.375 Y98.672 E15.91024
G1 X110.391 Y100.688 E15.98847
G1 X110.392 Y107.423 E16.17328
G1 X110.392 Y107.623 E16.17877
G1 X110.192 Y107.623 E16.18232
